!!!id: 17xx:525
!!!COM: Luna, Georgius
!!!OTL: Vesperae in D – Magnificat
!!!PDT:
!!!SMS-siglum: PL-SA
!!!SMS-shelfmark: 155/A IV 5
!!!NIFC-rismID: 1001070698
!!!URL-scan: http://bc.bdsandomierz.pl/dlibra/publication/1541/edition/1509/content
!!!ONB-nifc: UWAGA: części Vesperae: Dixit Dominus, Confitebor, Beatus vir, Laudate pueri,
!!!SMS-variant:
!!!SMS-altvar:
**kern	**dynam	**kern	**dynam	**kern	**dynam	**kern	**text	**kern	**text
*part5	*part5	*part4	*part4	*part3	*part3	*part2	*part2	*part1	*part1
*staff5	*	*staff4	*	*staff3	*	*staff2	*staff2	*staff1	*staff1
*group3	*	*group2	*	*group2	*	*group1	*	*group1	*
*I"Fundamento	*	*I"Violinu Secundo	*	*I"Violino Primo	*	*I"Tenore	*	*I"Canto	*
*I'Fun	*	*I'Vno II	*	*I'Vno I	*	*I'T	*	*I'S	*
*clefF4	*	*clefG2	*	*clefG2	*	*clefC4	*	*clefC1	*
*k[f#c#]	*	*k[f#c#]	*	*k[f#c#]	*	*k[f#c#]	*	*k[f#c#]	*
*M4/4	*	*M4/4	*	*M4/4	*	*M4/4	*	*M4/4	*
*met(c)	*	*met(c)	*	*met(c)	*	*met(c)	*	*met(c)	*
*[ABCDEA1B1]	*	*[ABCDEA1B1]	*	*[ABCDEA1B1]	*	*[ABCDEA1B1]	*	*>[ABCDEA1B1]	*
=1	=1	=1	=1	=1	=1	=1	=1	=1	=1
*>A	*	*>A	*	*>A	*	*>A	*	*>A	*
!	!	!	!	!LO:TX:a:t=adagio	!	!	!	!	!
!LO:TX:b:t=Magnificat	!	!LO:TX:a:t=adagio	!	!LO:TX:b:t=Magnificat	!	!	!	!	!
!LO:TX:a:t=ada	!	!LO:TX:a:t=problem:mixed beam	!	!LO:TX:a:t=problem:mixed beam	!	!	!	!	!
4d\	.	8dd\L	.	8dd\L	.	4A\	Mag-	4ff#\	Mag-
.	.	32d/LL	.	32d/LL	.	.	.	.	.
.	.	32e/	.	32e/	.	.	.	.	.
.	.	32f#/	.	32f#/	.	.	.	.	.
.	.	32g/JJJ	.	32g/JJJ	.	.	.	.	.
4D/	.	4aa;\	.	8a'\L	.	8A\	-ni-	8ff#\	-ni-
.	.	.	.	32dd\LL	.	8A\	-fi-	8ff#\	-fi-
.	.	.	.	32ee\	.	.	.	.	.
.	.	.	.	32ff#\	.	.	.	.	.
.	.	.	.	32gg\JJJ	.	.	.	.	.
!	!	!LO:N:vis=4	!	!	!	!	!	!	!
4A;\	.	2r	.	4aa;\	.	4c#\	-cat	4ee\	-cat
4r	.	.	.	4r	.	4r	.	4r	.
=2	=2	=2	=2	=2	=2	=2	=2	=2	=2
!	!	!LO:TX:a:t=problem:mixed beam	!	!LO:TX:a:t=problem:mixed beam	!	!	!	!	!
4B\	.	8b\L	.	8b\L	.	4F#/	a-	4dd\	a-
.	.	32B/LL	.	32B/LL	.	.	.	.	.
.	.	32c#/	.	32c#/	.	.	.	.	.
.	.	32d/	.	32d/	.	.	.	.	.
.	.	32e/JJJ	.	32e/JJJ	.	.	.	.	.
4BB/	.	8f#\L	.	8f#\L	.	4F#/	-ni-	4dd\	-ni-
.	.	32b\LL	.	32b\LL	.	.	.	.	.
.	.	32cc#\	.	32cc#\	.	.	.	.	.
.	.	32dd\	.	32dd\	.	.	.	.	.
.	.	32ee\JJJ	.	32ee\JJJ	.	.	.	.	.
4F#;\	.	4ff#;\	.	4ff#\	.	4A#X\	-ma	4cc#\	-ma
4r	.	4r	.	4r	.	4r	.	4r	.
=3	=3	=3	=3	=3	=3	=3	=3	=3	=3
*	*	*	*	*	*	*2\right	*	*2\right	*
!	!	!LO:TX:a:t=problem:mixed beam	!	!LO:TX:a:t=problem:mixed beam	!	!	!	!	!
4G\	.	8gg\L	.	8gg\L	.	2d\	me-	2b\	me-
.	.	32g/LL	.	32g/LL	.	.	.	.	.
.	.	32a/	.	32a/	.	.	.	.	.
.	.	32b/	.	32b/	.	.	.	.	.
.	.	32cc#/JJJ	.	32cc#/JJJ	.	.	.	.	.
4GG/	.	8dd\L	.	8dd\L	.	.	.	.	.
.	.	32gg\LL	.	32gg\LL	.	.	.	.	.
.	.	32aa\	.	32aa\	.	.	.	.	.
.	.	32bb\	.	32bb\	.	.	.	.	.
.	.	32ccc#\JJJ	.	32ccc#\JJJ	.	.	.	.	.
4D;\	.	4ddd;\	.	4ddd\	.	4d\	-a	4a\	-a
4r	.	4r	.	4r	.	4r	.	4r	.
=4	=4	=4	=4	=4	=4	=4	=4	=4	=4
8GG#X/L	.	8G#X/L	.	8G#X/L	.	4.d\	Do-	4.ff#\	Do-
8GG#/	.	8G#/	.	8G#/	.	.	.	.	.
8GG#/	.	8G#/	.	8G#/	.	.	.	.	.
8GG#/J	.	8G#/J	.	8G#/J	.	8d\	-mi-	8ff#\	-mi-
4AA;/	.	4A;/	.	4A;/	.	4c#;\	-num	4ee;\	-num
4r	.	4r	.	4r	.	4r	.	4r	.
!	!	!	!	!	!	!LO:LB:g=original	!	!	!
=5	=5	=5	=5	=5	=5	=5	=5	=5	=5
*>B	*	*>B	*	*>B	*	*>B	*	*>B	*
!LO:TX:a:t=Allo Solo	!	!LO:TX:a:t=Allo	!	!LO:TX:a:t=Allo	!	!	!	!	!
8D\L	.	8f#/L	.	8d/L	.	00r	.	00r	.
8D\	.	8f#/	.	8d/J	.	.	.	.	.
*	*	*	*	*Xtuplet	*	*	*	*	*
!	!	!	!	!LO:TX:a:t=problem:brak oznaczenia triol	!	!	!	!	!
8D\	.	8f#/	.	24d/LL	.	.	.	.	.
.	.	.	.	24e/	.	.	.	.	.
.	.	.	.	24f#/JJ	.	.	.	.	.
8D\J	.	8f#/J	.	24f#/LL	.	.	.	.	.
.	.	.	.	24g/	.	.	.	.	.
.	.	.	.	24a/JJ	.	.	.	.	.
8D\L	.	8g/L	.	8b\	.	.	.	.	.
8D\	.	8g/	.	4.b\	.	.	.	.	.
8D\	.	8g/	.	.	.	.	.	.	.
8D\J	.	8g/J	.	.	.	.	.	.	.
!	!	!	!	!LO:LB:g=original	!	!	!	!	!
=6	=6	=6	=6	=6	=6	=6	=6	=6	=6
8D\L	.	8b/	.	8gg\	.	.	.	.	.
8D\	.	4b/	.	4gg\	.	.	.	.	.
8D\	.	.	.	.	.	.	.	.	.
8D\J	.	8g/	.	8b\	.	.	.	.	.
!	!	!LO:LB:g=original	!	!	!	!	!	!	!
8D\L	.	8g/L	.	8b\L	.	.	.	.	.
8D\	.	8f#/J	.	8a\J	.	.	.	.	.
8F#\	.	8a/L	.	24d/LL	.	.	.	.	.
.	.	.	.	24f#/	.	.	.	.	.
.	.	.	.	24a/JJ	.	.	.	.	.
8F#\J	.	8a/J	.	24dd\LL	.	.	.	.	.
.	.	.	.	24ee\	.	.	.	.	.
.	.	.	.	24ff#\JJ	.	.	.	.	.
=7	=7	=7	=7	=7	=7	=7	=7	=7	=7
8G\L	.	8b\L	.	16ee\LL	.	.	.	.	.
.	.	.	.	16cc#\JJ	.	.	.	.	.
8G\	.	8b\	.	4a/	.	.	.	.	.
8A\	.	8cc#\	.	.	.	.	.	.	.
8A\J	.	8cc#\J	.	8g/	.	.	.	.	.
!	!	!	!	!LO:TX:a:t=problem:mixed beam	!	!	!	!	!
4D\	.	4dd\	.	8f#/L	.	.	.	.	.
.	.	.	.	16aa\L	.	.	.	.	.
.	.	.	.	16ff#\JJ	.	.	.	.	.
8r	.	8r	.	16dd\LL	.	.	.	.	.
.	.	.	.	16ccn\	.	.	.	.	.
8F#\	.	8a\	.	16b\	.	.	.	.	.
.	.	.	.	16cc\JJ	.	.	.	.	.
=8	=8	=8	=8	=8	=8	=8	=8	=8	=8
4G\	.	4d/	.	8b\L	.	.	.	.	.
.	.	.	.	16bb\L	.	.	.	.	.
.	.	.	.	16gg#X\JJ	.	.	.	.	.
8r	.	8r	.	16ee\LL	.	.	.	.	.
.	.	.	.	16dd\	.	.	.	.	.
8G#X\	.	8b\	.	16cc#X\	.	.	.	.	.
.	.	.	.	16dd\JJ	.	.	.	.	.
!LO:LB:g=original	!	!	!	!	!	!	!	!	!
8A\L	.	8e/L	.	8cc#\L	.	.	.	.	.
16F#\L	.	16f#/L	.	16dd\L	.	.	.	.	.
!LO:TX:a:t=SIC:s=Gn	!	!	!	!	!	!	!	!	!
16G#\JJ	.	16e/JJ	.	16g\JJ	.	.	.	.	.
!LO:TX:a:t=problem:mixed beam	!	!	!	!	!	!	!	!	!
8A\L	.	8d/L	.	8f#/L	.	.	.	.	.
8AA/J	.	8c#'/J	.	8e/J	.	.	.	.	.
=9	=9	=9	=9	=9	=9	=9	=9	=9	=9
*2\right	*	*	*	*	*	*	*	*	*
*tremolo	*	*	*	*	*	*	*	*	*
*tremolo	*	*	*	*	*	*	*	*	*
!LO:TX:A:t=Tutti	!	!	!	!	!	!	!	!	!
8D\L	.	8d/L	.	8d/L	.	4A\	et	4dd\	et
8D\	.	8f#/	.	8d/J	.	.	.	.	.
8D\	.	8f#/	.	24d/LL	.	8A\	ex-	8dd\	ex-
.	.	.	.	24e/	.	.	.	.	.
.	.	.	.	24f#/JJ	.	.	.	.	.
8D\J	.	8f#/J	.	24f#/LL	.	8F#/	-ul-	8a\	-ul-
.	.	.	.	24g/	.	.	.	.	.
.	.	.	.	24a/JJ	.	.	.	.	.
8D\L	.	8g/L	.	8b\	.	8G/	-ta-	8b\	-ta-
8D\	.	8g/	.	4.b\	.	4.G/	-vit	4.b\	-vit
8D\	.	8g/	.	.	.	.	.	.	.
8D\J	.	8g/J	.	.	.	.	.	.	.
!	!	!	!	!	!	!	!	!LO:LB:g=original	!
=10	=10	=10	=10	=10	=10	=10	=10	=10	=10
8D\L	.	8b\	.	8gg\	.	4B\	Spi-	4gg\	Spi-
8D\	.	4b\	.	4gg\	.	.	.	.	.
8D\	.	.	.	.	.	8B\	-ri-	8gg\	-ri-
8D\J	.	8g\	.	8b\	.	8G/	-tus	8g/	-tus
*Xtremolo	*	*	*	*	*	*	*	*	*
8D\L	.	8g/L	.	8b\L	.	8G/	me-	8g/	me-
8D\	.	8f#/J	.	8a\J	.	8F#/	-us	8f#/	-us
8F#\	.	8a/L	.	24d/LL	.	4A\	in	4dd\	in
.	.	.	.	24f#/	.	.	.	.	.
.	.	.	.	24a/JJ	.	.	.	.	.
8F#\J	.	8a/J	.	24dd\LL	.	.	.	.	.
.	.	.	.	24ee\	.	.	.	.	.
.	.	.	.	24ff#\JJ	.	.	.	.	.
!	!	!	!	!LO:LB:g=original	!	!	!	!	!
=11	=11	=11	=11	=11	=11	=11	=11	=11	=11
!LO:TX:a:t=problem:mixed beam	!	!	!	!	!	!	!	!	!
8G\L	.	8b\L	.	16ee\LL	.	8B\	De-	8ee\	De-
.	.	.	.	16dd\	.	.	.	.	.
8G\	.	8b\	.	16cc#\	.	8B\	-o	8a\	-o
.	.	.	.	16b\JJ	.	.	.	.	.
8A\	.	8cc#\	.	8a/L	.	8c#\	Sa-	8a\	Sa-
8AA/J	.	8cc#\J	.	8g/J	.	8c#\	-lu-	8g\	-lu-
*tremolo	*	*	*	*	*	*	*	*	*
8D/L	.	8ee\L	.	8g/L	.	8e\	-ta-	8g/	-ta-
8D/	.	8dd\J	.	8f#/J	.	8d\	-ri	8f#/	-ri
8D/	.	16d/LL	.	16f#/LL	.	4A\	in	4ff#\	in
.	.	16A/	.	16d/	.	.	.	.	.
8D/J	.	16f#/	.	16a/	.	.	.	.	.
.	.	16d/JJ	.	16f#/JJ	.	.	.	.	.
=12	=12	=12	=12	=12	=12	=12	=12	=12	=12
8D/L	.	16a\LL	.	16dd\LL	.	8A\	De-	8ff#\	De-
.	.	16f#\	.	16a\	.	.	.	.	.
8D/	.	16dd\	.	16ff#\	.	8A\	-o	8ff#\	-o
.	.	16a\JJ	.	16dd\JJ	.	.	.	.	.
8D/	.	8ff#\L	.	8aa\L	.	8A\	Sa-	8ff#\	Sa-
8D/J	.	8dd\J	.	8ff#\J	.	8A\	-lu-	8ff#\	-lu-
.	.	8qqdd/	.	8qqff#/	.	.	.	.	.
8A\L	.	16cc#\LL	.	16ee\LL	.	8c#\	-ta-	8ee\	-ta-
.	.	16b\J	.	16dd\J	.	.	.	.	.
8A\	.	8cc#\J	.	8ee\J	.	8c#\	-ri	8ee\	-ri
!	!	!	!	!	!	!LO:LB:g=original	!	!LO:LB:g=original	!
8A\	.	16d/LL	.	16e/LL	.	8c#\	sa-	8ee\	sa-
.	.	16A/	.	16c#/	.	.	.	.	.
8A\J	.	16e/	.	16a/	.	8c#\	-lu-	8ee\	-lu-
.	.	16c#/JJ	.	16e/JJ	.	.	.	.	.
!	!	!LO:LB:g=original	!	!	!	!	!	!	!
=13	=13	=13	=13	=13	=13	=13	=13	=13	=13
8A\L	.	16a/LL	.	16cc#\LL	.	4c#\	-ta-	4ee\	-ta-
.	.	16e/JJ	.	16a\	.	.	.	.	.
8A\	.	16cc#\LL	.	16ee\	.	.	.	.	.
.	.	16a\JJ	.	16cc#\JJ	.	.	.	.	.
8A\	.	8ee\L	.	8aa\L	.	4c#\	-ri	4ee\	-ri
8A\J	.	8cc#\J	.	8ee\J	.	.	.	.	.
*Xtremolo	*	*	*	*	*	*	*	*	*
8E\L	.	16b\LL	.	16dd\LL	.	16B\LL	me-	16dd\LL	me-
.	.	16a\J	.	16cc#\J	.	16A\JJ	.	16cc#\JJ	.
8E\	.	8b\J	.	8dd\J	.	8B\	-o	8dd\	-o
8E\	.	8dd\L	.	8bb\L	.	4B\	in	4dd\	in
8G#X\J	.	8b\J	.	8dd\J	.	.	.	.	.
=14	=14	=14	=14	=14	=14	=14	=14	=14	=14
8A\L	.	16a\LL	.	16cc#\LL	.	8A\	De-	8cc#\	De-
.	.	16ee\	.	16aa\	.	.	.	.	.
8c#\	.	16cc#\	.	16ee\	.	8c#\	-o	8ee\	-o
.	.	16a\JJ	.	16cc#\JJ	.	.	.	.	.
8E\	.	8b\L	.	8dd\L	.	8B\	Sa-	8dd\	Sa-
8G#X\J	.	8b\J	.	8dd\J	.	8B\	-lu-	8dd\	-lu-
*	*	*Xtuplet	*	*	*	*	*	*	*
!LO:TX:a:t=problem:mixed beam	!	!LO:TX:a:t=problem: brak oznaczenia triol	!	!	!	!	!	!	!
8A\L	.	24a\LL	.	24cc#\LL	.	8A\L	-ta-	8cc#\L	-ta-
.	.	24ee\	.	24ee\	.	.	.	.	.
.	.	24aa\JJ	.	24aa\JJ	.	.	.	.	.
!	!	!LO:TX:a:t=problem: brak oznaczenia triol	!	!	!	!	!	!	!
8D\	.	24cc#\LL	.	24cc#\LL	.	16B\L	-ri-	16b\L	-ri-
.	.	24b\	.	24b\	.	.	.	.	.
.	.	.	.	.	.	16c#\JJ	.	16a\JJ	.
.	.	24a\JJ	.	24a\JJ	.	.	.	.	.
!	!	!	!	!	!	!	!	!LO:TX:a:t=problem:niepewne czy mordent czy tryl	!
8E\	.	4g#X/	.	4bT\	.	4G#X/	-me-	4bM\	-me-
8EE/J	.	.	.	.	.	.	.	.	.
=15	=15	=15	=15	=15	=15	=15	=15	=15	=15
*tremolo	*	*	*	*	*	*	*	*	*
!LO:TX:a:t=Solo	!	!	!	!	!	!	!	!	!
8AA/L	.	8a\L	.	8a\L	.	4A\	-o	4a\	-o
8AA/	.	8cc#\	.	8a\J	.	.	.	.	.
8AA/	.	8cc#\	.	24a\LL	.	4r	.	4r	.
.	.	.	.	24b\	.	.	.	.	.
.	.	.	.	24cc#\JJ	.	.	.	.	.
8AA/J	.	8cc#\J	.	24cc#\LL	.	.	.	.	.
.	.	.	.	24dd\	.	.	.	.	.
.	.	.	.	24ee\JJ	.	.	.	.	.
8AA/L	.	8dd\L	.	8ff#\	.	2r	.	2r	.
8AA/	.	8dd\	.	4.ff#\	.	.	.	.	.
8AA/	.	8dd\	.	.	.	.	.	.	.
8AA/J	.	8dd\J	.	.	.	.	.	.	.
!LO:LB:g=original	!	!	!	!	!	!	!	!	!
=16	=16	=16	=16	=16	=16	=16	=16	=16	=16
8AA/L	.	8ff#\	.	8ddd\	.	0r	.	0r	.
8AA/	.	4ff#\	.	4ddd\	.	.	.	.	.
8AA/	.	.	.	.	.	.	.	.	.
8AA/J	.	8dd\	.	8ff#\	.	.	.	.	.
*Xtremolo	*	*	*	*	*	*	*	*	*
!	!	!	!	!LO:LB:g=original	!	!	!	!	!
8AA/L	.	8dd\L	.	8ff#\L	.	.	.	.	.
8AA/	.	8cc#\	.	8ee\J	.	.	.	.	.
8C#/	.	8ee\	.	24a\LL	.	.	.	.	.
.	.	.	.	24cc#\	.	.	.	.	.
.	.	.	.	24ee\JJ	.	.	.	.	.
8C#/J	.	8ee\J	.	24aa\LL	.	.	.	.	.
.	.	.	.	24bb\	.	.	.	.	.
.	.	.	.	24ccc#\JJ	.	.	.	.	.
=17	=17	=17	=17	=17	=17	=17	=17	=17	=17
!	!	!LO:TX:a:t=problem:mixed beam	!	!	!	!	!	!	!
8D\L	.	8ff#\L	.	16bb\LL	.	.	.	.	.
.	.	.	.	16gg#X\JJ	.	.	.	.	.
8D\	.	8f#/	.	4ee\	.	.	.	.	.
8E\	.	8g#X/	.	.	.	.	.	.	.
8E\J	.	8g#/J	.	8dd\	.	.	.	.	.
4AA/	.	4a/	.	8cc#\L	.	.	.	.	.
.	.	.	.	16ee\L	.	.	.	.	.
.	.	.	.	16cc#\JJ	.	.	.	.	.
8r	.	8r	.	16a/LL	.	.	.	.	.
.	.	.	.	16gn/	.	.	.	.	.
8C#/	.	8e/	.	16f#/	.	.	.	.	.
.	.	.	.	16g/JJ	.	.	.	.	.
=18	=18	=18	=18	=18	=18	=18	=18	=18	=18
!	!	!	!	!LO:TX:a:t=problem:mixed beam	!	!	!	!	!
4D\	.	4A/	.	8f#/L	.	1r	.	1r	.
.	.	.	.	16ff#\L	.	.	.	.	.
.	.	.	.	16dd\JJ	.	.	.	.	.
8r	.	8r	.	16b\LL	.	.	.	.	.
.	.	.	.	16a\	.	.	.	.	.
8D\	.	8f#/	.	16g#X\	.	.	.	.	.
.	.	.	.	16a\JJ	.	.	.	.	.
8E\L	.	8B/L	.	8g#/L	.	.	.	.	.
16C#\L	.	16c#/L	.	16a/L	.	.	.	.	.
16D\JJ	.	16B/JJ	.	16e/JJ	.	.	.	.	.
!LO:TX:a:t=problem:mixed beam	!	!	!	!	!	!	!	!	!
8E\L	.	8A/L	.	8c#/L	.	.	.	.	.
8EE/J	.	8G#X/J	.	8B/J	.	.	.	.	.
!	!	!LO:LB:g=original	!	!	!	!	!	!LO:LB:g=original	!
=19	=19	=19	=19	=19	=19	=19	=19	=19	=19
!LO:TX:a:t=Tutti	!	!	!	!	!	!	!	!	!
!LO:TX:a:t=problem:mixed beam	!	!	!	!LO:TX:a:t=problem:mixed beam	!	!	!	!	!
8AA/L	.	8a\L	.	8A/L	.	4c#\	Qui-	4ee\	qui-
8A\	.	8cc#\	.	8a\J	.	.	.	.	.
8A\	.	8cc#\	.	24a\LL	.	8c#\	-a	8ee\	-a
.	.	.	.	24b\	.	.	.	.	.
.	.	.	.	24cc#\JJ	.	.	.	.	.
8A\J	.	8cc#\J	.	24cc#\LL	.	8c#\	res-	8ee\	res-
.	.	.	.	24dd\	.	.	.	.	.
.	.	.	.	24ee\JJ	.	.	.	.	.
*tremolo	*	*	*	*	*	*	*	*	*
8A\L	.	8dd\L	.	8ff#\	.	8d\	-pe-	8ff#\	-pe-
8A\	.	8dd\	.	4.ff#\	.	4.d\	-xit	4.ff#\	-xit
8A\	.	8dd\	.	.	.	.	.	.	.
8A\J	.	8dd\J	.	.	.	.	.	.	.
!	!	!	!	!	!	!LO:LB:g=original	!	!	!
=20	=20	=20	=20	=20	=20	=20	=20	=20	=20
8A\L	.	8dd\	.	8ddd\	.	4d\	hu-	4ff#\	hu-
8A\	.	4ff#\	.	4ddd\	.	.	.	.	.
8A\	.	.	.	.	.	8d\	-mi-	8ff#\	-mi-
8A\J	.	8dd\	.	8ff#\	.	8d\	-li-	8ff#\	-li-
*Xtremolo	*	*	*	*	*	*	*	*	*
!LO:TX:a:t=problem:mixed beam	!	!	!	!	!	!	!	!	!
8A\L	.	8dd\L	.	8ff#\L	.	8d\	-ta-	8ff#\	-ta-
8A\	.	8cc#\J	.	8ee\J	.	8c#\	-tem	8ee\	-tem
8C#/	.	8e/L	.	24a\LL	.	4c#\	an-	4ee\	an-
.	.	.	.	24cc#\	.	.	.	.	.
.	.	.	.	24ee\JJ	.	.	.	.	.
8C#/J	.	8e/J	.	24aa\LL	.	.	.	.	.
.	.	.	.	24bb\	.	.	.	.	.
.	.	.	.	24ccc#\JJ	.	.	.	.	.
=21	=21	=21	=21	=21	=21	=21	=21	=21	=21
8D\L	.	8f#/L	.	16bb\LL	.	8B\	-cil-	8dd\	-cil-
.	.	.	.	16aa\	.	.	.	.	.
8D\	.	8f#/	.	16gg#X\	.	8B\	-lae	8dd\	-lae
.	.	.	.	16ff#\JJ	.	.	.	.	.
!	!	!LO:TX:a:t=SIC:s=g#	!	!	!	!LO:TX:a:t=h	!	!	!
.	.	.	.	.	.	8qqc#/	.	8qqee/	.
8E\	.	8g/	.	8ee\L	.	4B\	su-	4dd\	su-
8E\J	.	8b/J	.	8dd\J	.	.	.	.	.
!LO:TX:a:t=problem:mixed beam	!	!	!	!LO:LB:g=original	!	!	!	!	!
.	.	8qqb/	.	8qqdd/	.	.	.	.	.
8AA/L	.	4a/	.	4cc#\	.	4A\	-ae	4cc#\	-ae
8A\	.	.	.	.	.	.	.	.	.
8A\	.	16e/LL	.	16a\LL	.	8c#\	Ec-	8ee\	Ec-
.	.	16a/JJ	.	16cc#\	.	.	.	.	.
8A\J	.	16cc#\LL	.	16ee\	.	8c#\	-ce	8ee\	-ce
.	.	16dd\JJ	.	16ff#\JJ	.	.	.	.	.
=22	=22	=22	=22	=22	=22	=22	=22	=22	=22
*tremolo	*	*	*	*	*	*	*	*	*
8A\L	.	16ee\LL	.	16ggn\LL	.	2c#\	e-	2ee\	e-
.	.	16cc#\JJ	.	16ee\	.	.	.	.	.
8A\	.	16a/LL	.	16cc#\	.	.	.	.	.
.	.	16e/JJ	.	16a\JJ	.	.	.	.	.
!	!	!LO:TX:a:t=problem:mixed beam	!	!LO:TX:a:t=problem:mixed beam	!	!	!	!	!
8A\	.	8A/L	.	8A/L	.	.	.	.	.
8A\J	.	8ee\J	.	8gg\J	.	.	.	.	.
*Xtremolo	*	*	*	*	*	*	*	*	*
!	!	!	!	!	!	!	!	!LO:LB:g=original	!
4D\	.	4dd\	.	4ff#\	.	4d\	-nim	4ff#\	-nim
8F#\L	.	8a/L	.	16d/LL	.	8A/L	ex	4dd\	ex
.	.	.	.	16f#/	.	.	.	.	.
16D\L	.	16f#/L	.	16a/	.	8G/J	.	.	.
16E\JJ	.	16g/JJ	.	16dd/JJ	.	.	.	.	.
!LO:LB:g=original	!	!	!	!	!	!	!	!	!
=23	=23	=23	=23	=23	=23	=23	=23	=23	=23
8F#\L	.	8a/L	.	16ff#\LL	.	8A\L	hoc	(4dd\	hoc
.	.	.	.	16aa\	.	.	.	.	.
8E\	.	8g/	.	16ff#\	.	8G\	.	.	.
.	.	.	.	16dd\JJ	.	.	.	.	.
.	.	.	.	8qqdd/	.	.	.	.	.
8D\	.	8f#/	.	8ccn\L	.	8F#\	.	4ccn\)	Be-
8F#\J	.	8a/J	.	8cc\J	.	8A\J	.	.	.
!LO:TX:a:t=problem:mixed beam	!	!	!	!	!	!	!	!	!
.	.	.	.	8qqcc/	.	.	.	.	.
8G\L	.	4d/	.	4b\	.	4G/	Be-	4b\	-a-
8GG/J	.	.	.	.	.	.	.	.	.
8G#X\L	.	8b/L	.	16e/LL	.	8B\L	-a-	4ee\	-tam
.	.	.	.	16g#X/	.	.	.	.	.
!	!	!LO:TX:a:t=SIC:s=g#	!	!	!	!	!	!	!
16E\L	.	16g/L	.	16b/	.	8A\J	.	.	.
16F#\JJ	.	16a/JJ	.	16ee/JJ	.	.	.	.	.
=24	=24	=24	=24	=24	=24	=24	=24	=24	=24
!LO:TX:a:t=SIC:s=G#	!	!	!	!	!	!	!	!	!
8G\L	.	8b/L	.	16gg#X\LL	.	8B\L	-tam	(4ee\	me
.	.	.	.	16bb\	.	.	.	.	.
8F#\	.	8a/	.	16gg#\	.	8A\	.	.	.
.	.	.	.	16ee\JJ	.	.	.	.	.
!	!	!LO:TX:a:t=SIC:s=g#	!	!	!	!	!	!	!
8E\	.	8g/	.	8dd\L	.	8G#X\	.	4dd\)	di-
8G#X\J	.	8b/J	.	8dd\J	.	8B\J	.	.	.
!	!	!LO:TX:a:t=problem:mixed beam	!	!	!	!LO:LB:g=original	!	!	!
.	.	.	.	8qqdd/	.	.	.	.	.
8A\L	.	8e/L	.	8cc#\L	.	4A\	me-	4cc#\	-cent
8E\	.	8cc#\	.	8gg#\J	.	.	.	.	.
8C#\	.	8dd\	.	4gg#t\	.	8c#\L	-a	4ee\	om-
8C#\J	.	8ee\J	.	.	.	8d\J	di-	.	.
!	!	!LO:LB:g=original	!	!	!	!	!	!	!
=25	=25	=25	=25	=25	=25	=25	=25	=25	=25
8D\L	.	8dd\L	.	8ff#\L	.	4e\	-cent	4ff#\	-nes
8E\	.	8cc#\	.	8gg\J	.	.	.	.	.
8BB\	.	8dd\	.	4ggT\	.	8d\	om-	8gg\	ge-
8C#\J	.	8ee\J	.	.	.	8e\	-nes	8gg\	-ne-
!LO:TX:a:t=problem:mixed beam	!	!	!	!	!	!	!	!	!
8D\L	.	8a\L	.	8ff#\L	.	8d\	om-	8ff#\	-ra-
8G\	.	8b\J	.	16ee\L	.	16e\LL	.	16ee\LL	-ti-
.	.	.	.	16dd\JJ	.	16f#\JJ	.	16dd\JJ	.
.	.	8qqb/	.	.	.	.	.	.	.
8A\	.	4cc#t\	.	4ee\	.	4c#\	-nes	4ee\	-o-
8AA/J	.	.	.	.	.	.	.	.	.
!	!	!	!	!	!	!	!	!LO:LB:g=original	!
=26	=26	=26	=26	=26	=26	=26	=26	=26	=26
!	!LO:DY:t=pia	!	!	!	!	!	!	!	!
!	!LO:DY:a	!	!	!	!	!	!	!	!
8D\L	p	8dd\L	.	8dd\L	.	4d\	om-	4dd\	-nes
8E\	.	8cc#\	.	8gg\J	.	.	.	.	.
8BB\	.	8dd\	.	4ggT\	.	8d\L	-nes	4gg\	om-
8C#\J	.	8ee\J	.	.	.	8e\J	.	.	.
8D\L	.	8dd\L	.	8ff#\L	.	4d\	ge-	4ff#\	-nes
8E\	.	8cc#\	.	8gg\J	.	.	.	.	.
8BB\	.	8dd\	.	4ggT\	.	8d\	-ne-	8gg\	ge-
8C#\J	.	8ee\J	.	.	.	8e\	-ra-	8gg\	-ne-
=27	=27	=27	=27	=27	=27	=27	=27	=27	=27
!LO:TX:a:t=problem:mixed beam	!	!	!	!	!	!	!	!	!
8D\L	.	8a/L	.	8ff#\L	.	8d\L	.	8ff#\	-ra-
8F#\	.	8b/J	.	16ee\L	.	16e\L	-ti-	16ee\LL	-ti-
.	.	.	.	16dd\JJ	.	16f#\JJ	.	16dd\JJ	.
.	.	8qqdd/	.	.	.	.	.	.	.
8A\	.	4cc#\	.	4eeT\	.	4c#\	-o-	4ee\	-o-
8AA/J	.	.	.	.	.	.	.	.	.
!	!	!	!	!LO:LB:g=original	!	!	!	!	!
4D\	.	4dd\	.	8dd\L	.	4d\	-nes	4dd\	-nes
.	.	.	.	16aa\L	.	.	.	.	.
.	.	.	.	16ff#\JJ	.	.	.	.	.
!	!	!	!	!	!	!	!	!LO:N:vis=4	!
8r	.	8r	.	16dd\LL	.	4r	.	8r	.
.	.	.	.	16ccn\	.	.	.	.	.
!	!	!	!	!	!	!	!	!LO:N:vis=2	!
8F#\	.	8a/	.	16b\	.	.	.	8r	.
.	.	.	.	16cc\JJ	.	.	.	.	.
=28	=28	=28	=28	=28	=28	=28	=28	=28	=28
!	!	!	!	!	!	!LO:TX:a:t=problem:brak t. 28-29	!	!	!
4G\	.	4d/	.	8b\L	.	1ryy	.	0r	.
.	.	.	.	16bb\L	.	.	.	.	.
.	.	.	.	16gg\JJ	.	.	.	.	.
8r	.	8r	.	16ee\LL	.	.	.	.	.
.	.	.	.	16dd\	.	.	.	.	.
8G\	.	8b\	.	16cc#X\	.	.	.	.	.
.	.	.	.	16dd\JJ	.	.	.	.	.
8A\L	.	8e/L	.	8cc#\L	.	.	.	.	.
16F#\L	.	16f#/L	.	16dd\L	.	.	.	.	.
16G\JJ	.	16e/JJ	.	16g\JJ	.	.	.	.	.
!LO:TX:a:t=problem:mixed beam	!	!	!	!	!	!	!	!	!
8A\L	.	8d/L	.	8f#/L	.	.	.	.	.
8AA/J	.	8c#/J	.	8e/J	.	.	.	.	.
=29	=29	=29	=29	=29	=29	=29	=29	=29	=29
4D\	.	4d/	.	4d/	.	1ryy	.	.	.
4r	.	4r	.	4r	.	.	.	.	.
2r	.	2r	.	2r	.	.	.	.	.
!LO:TX:a:t=problem:ozdobna kreska taktowa	!	!	!	!	!	!	!	!LO:TX:a:t=problem:ozdobna kreska taktowa	!
!LO:LB:g=original	!	!LO:LB:g=original	!	!LO:LB:g=original	!	!	!	!LO:PB:g=original	!
=30:|!|:;;	=30:|!|:	=30:|!|:	=30:|!|:	=30:|!|:;	=30:|!|:	=30:|!|:;;	=30:|!|:	=30:|!|:;	=30:|!|:
*>C	*	*>C	*	*>C	*	*>C	*	*>C	*
!LO:TX:a:t=Modera Solo	!	!	!	!LO:TX:b:t=Quia fecit	!	!	!	!	!
!LO:TX:b:t=Quia fecit	!	!LO:TX:a:t=Moderato	!	!LO:TX:a:t=adagio	!	!LO:TX:a:t=Quia Tace	!	!	!
8BB/L	.	16b\KL	.	(16b\KL	.	1ryy	.	00r	.
.	.	8.bb\J	.	8.bb\J)	.	.	.	.	.
8D/	.	.	.	.	.	.	.	.	.
8E/	.	4gg\	.	4gg\	.	.	.	.	.
8AA#X/J	.	.	.	.	.	.	.	.	.
8BB/L	.	16ff#\LL	.	16ff#\LL	.	.	.	.	.
.	.	16a#X\J	.	16a#X\J	.	.	.	.	.
8D/	.	8b\J	.	8b\J	.	.	.	.	.
8C#/	.	16r	.	16r	.	.	.	.	.
.	.	16f#/KL	.	16f#/KL	.	.	.	.	.
8D/J	.	8f#/J	.	8f#/J	.	.	.	.	.
=31	=31	=31	=31	=31	=31	=31	=31	=31	=31
8C#/L	.	8ee\	.	8ee\	.	1ryy	.	.	.
8BB/	.	4ee\	.	4ee\	.	.	.	.	.
8AA#X/	.	.	.	.	.	.	.	.	.
8FF#/J	.	16dd\LL	.	16dd\LL	.	.	.	.	.
.	.	16dd\JJ	.	16cc#\JJ	.	.	.	.	.
8BB/L	.	16dd\LL	.	16dd\LL	.	.	.	.	.
.	.	16cc#\J	.	16cc#\J	.	.	.	.	.
8C#/	.	8b\J	.	8b\J	.	.	.	.	.
8D/	.	8r	.	8r	.	.	.	.	.
8BB/J	.	8dd\	.	8dd\	.	.	.	.	.
=32	=32	=32	=32	=32	=32	=32	=32	=32	=32
4F#\	.	16cc#\LL	.	16cc#\LL	.	1ryy	.	.	.
.	.	16b\	.	16b\	.	.	.	.	.
.	.	16a#X\	.	16a#X\	.	.	.	.	.
.	.	16g\JJ	.	16g\JJ	.	.	.	.	.
4AA#X/	.	16f#/LL	.	16f#/LL	.	.	.	.	.
.	.	16e/	.	16e/	.	.	.	.	.
.	.	16d/	.	16d/	.	.	.	.	.
.	.	16c#/JJ	.	16c#/JJ	.	.	.	.	.
8BB/L	.	16d/LL	.	16d/LL	.	.	.	.	.
.	.	16c#/J	.	16c#/J	.	.	.	.	.
16BB/L	.	8B/J	.	8B/J	.	.	.	.	.
16C#/JJ	.	.	.	.	.	.	.	.	.
8D\L	.	8r	.	8r	.	.	.	.	.
8BB\J	.	16b\LL	.	16dd#X\LL	.	.	.	.	.
.	.	16cc#\JJ	.	16ee\JJ	.	.	.	.	.
=33	=33	=33	=33	=33	=33	=33	=33	=33	=33
!LO:TX:a:t=problem:mixed beam	!	!	!	!	!	!	!	!	!
8BB/L	.	8dd#X\	.	8ff#\	.	1ryy	.	.	.
8B\J	.	4dd#\	.	4ff#\	.	.	.	.	.
4BB/	.	.	.	.	.	.	.	.	.
.	.	16dd#\LL	.	16ff#\LL	.	.	.	.	.
.	.	16ee\JJ	.	16gg\JJ	.	.	.	.	.
8r	.	8ff#\	.	8aa\	.	.	.	.	.
8B\	.	4ff#\	.	4aa\	.	.	.	.	.
4BB/	.	.	.	.	.	.	.	.	.
.	.	16ff#\LL	.	16aa\LL	.	.	.	.	.
.	.	16gg\JJ	.	16bb\JJ	.	.	.	.	.
=34	=34	=34	=34	=34	=34	=34	=34	=34	=34
8r	.	8aa\	.	8cccn\	.	1ryy	.	00r	.
8BB/L	.	4gg\	.	4bb\	.	.	.	.	.
8C#/	.	.	.	.	.	.	.	.	.
8D#X/J	.	8ff#\	.	8aa\	.	.	.	.	.
.	.	8qqff#/	.	8qqaa/	.	.	.	.	.
8E\L	.	4ee\	.	4gg\	.	.	.	.	.
16G\L	.	.	.	.	.	.	.	.	.
16F#\JJ	.	.	.	.	.	.	.	.	.
4E\	.	8r	.	8r	.	.	.	.	.
.	.	16a\LL	.	16cc#\LL	.	.	.	.	.
.	.	16b\JJ	.	16dd\JJ	.	.	.	.	.
!	!	!LO:LB:g=original	!	!LO:LB:g=original	!	!	!	!	!
=35	=35	=35	=35	=35	=35	=35	=35	=35	=35
8r	.	8cc#\	.	8ee\	.	1ryy	.	.	.
8A\	.	4cc#\	.	4ee\	.	.	.	.	.
4AA/	.	.	.	.	.	.	.	.	.
.	.	16cc#\LL	.	16ee\LL	.	.	.	.	.
.	.	16dd\JJ	.	16ff#\JJ	.	.	.	.	.
8r	.	8ee\	.	8gg\	.	.	.	.	.
8A\	.	4ee\	.	4gg\	.	.	.	.	.
4AA/	.	.	.	.	.	.	.	.	.
.	.	16ee\LL	.	16gg\LL	.	.	.	.	.
.	.	16ff#\JJ	.	16aa\JJ	.	.	.	.	.
!LO::g=original	!	!	!	!	!	!	!	!	!
=36	=36	=36	=36	=36	=36	=36	=36	=36	=36
8r	.	8gg\	.	8bb\	.	1ryy	.	.	.
8AA/L	.	4ff#\	.	4aa\	.	.	.	.	.
8BB/	.	.	.	.	.	.	.	.	.
8C#/J	.	8ee\	.	8gg\	.	.	.	.	.
!LO:TX:a:t=problem:mixed beam	!	!	!	!	!	!	!	!	!
.	.	8qqee/	.	8qqgg/	.	.	.	.	.
8D\L	.	4dd\	.	4ff#\	.	.	.	.	.
8DD/	.	.	.	.	.	.	.	.	.
!	!	!	!	!LO:TX:a:t=problem:mixed beam	!	!	!	!	!
8F#\	.	(16aa\KL	.	16aa\KL	.	.	.	.	.
.	.	8.a\J)	.	8.a/J	.	.	.	.	.
8F#\J	.	.	.	.	.	.	.	.	.
=37	=37	=37	=37	=37	=37	=37	=37	=37	=37
!LO:TX:a:t=problem:mixed beam	!	!	!	!	!	!	!	!	!
8G\L	.	8b\L	.	24b\LL	.	1ryy	.	.	.
.	.	.	.	24cc#\	.	.	.	.	.
.	.	.	.	24dd\JJ	.	.	.	.	.
8E\	.	8g\J	.	24ee\LL	.	.	.	.	.
.	.	.	.	24ff#\	.	.	.	.	.
.	.	.	.	24cc#\JJ	.	.	.	.	.
.	.	8qqf#/	.	8qqdd/	.	.	.	.	.
8A\	.	4e/	.	4cc#\	.	.	.	.	.
8AA/J	.	.	.	.	.	.	.	.	.
8D\L	.	4f#/	.	4dd\	.	.	.	.	.
16F#\L	.	.	.	.	.	.	.	.	.
16E\JJ	.	.	.	.	.	.	.	.	.
8D\L	.	8r	.	8r	.	.	.	.	.
16C#\L	.	8dd\	.	8ff#\	.	.	.	.	.
16BB\JJ	.	.	.	.	.	.	.	.	.
=38	=38	=38	=38	=38	=38	=38	=38	=38	=38
8r	.	16dd\LL	.	16ff#\LL	.	1ryy	.	00r	.
.	.	16ee\JJ	.	16gg\JJ	.	.	.	.	.
8B\	.	4dd\	.	4ff#\	.	.	.	.	.
4BB/	.	.	.	.	.	.	.	.	.
.	.	8ee\	.	8gg\	.	.	.	.	.
8r	.	16dd\LL	.	16ff#\LL	.	.	.	.	.
.	.	16ee\JJ	.	16gg\JJ	.	.	.	.	.
!LO:TX:a:t=problem:mixed beam	!	!	!	!	!	!	!	!	!
8B\L	.	4dd\	.	4ff#\	.	.	.	.	.
8BB/	.	.	.	.	.	.	.	.	.
8F#\J	.	8ee\	.	8ee\	.	.	.	.	.
=39	=39	=39	=39	=39	=39	=39	=39	=39	=39
!LO:TX:a:t=problem:mixed beam	!	!	!	!	!	!	!	!	!
8B\L	.	8f#/L	.	24dd\LL	.	1ryy	.	.	.
.	.	.	.	24cc#\	.	.	.	.	.
.	.	.	.	24b\JJ	.	.	.	.	.
8E\	.	8g/	.	24gg\LL	.	.	.	.	.
.	.	.	.	24ff#\	.	.	.	.	.
.	.	.	.	24ee\JJ	.	.	.	.	.
!	!	!LO:TX:a:t=h	!	!	!	!	!	!	!
.	.	.	.	8qqee/	.	.	.	.	.
8F#\	.	8b/	.	8dd\L	.	.	.	.	.
8FF#/J	.	8a#X/J	.	8cc#\J	.	.	.	.	.
.	.	8qqb/	.	8qqcc#/	.	.	.	.	.
8BB/L	.	4b\	.	4b\	.	.	.	.	.
8C#/	.	.	.	.	.	.	.	.	.
8D/	.	8r	.	8r	.	.	.	.	.
!	!	!	!	!	!LO:DY:t=pia	!	!	!	!
!	!	!	!	!	!LO:DY:a	!	!	!	!
8BB/J	.	8dd\	.	8ff#\	p	.	.	.	.
=40	=40	=40	=40	=40	=40	=40	=40	=40	=40
!	!LO:DY:a	!	!	!	!	!	!	!	!
8r	p	16dd\LL	.	16ff#\LL	.	1ryy	.	.	.
.	.	16ee\JJ	.	16gg\JJ	.	.	.	.	.
8B\	.	4dd\	.	4ff#\	.	.	.	.	.
4BB/	.	.	.	.	.	.	.	.	.
.	.	8ee\	.	8gg\	.	.	.	.	.
8r	.	8cc#\	.	16ff#\LL	.	.	.	.	.
.	.	.	.	16gg\JJ	.	.	.	.	.
!LO:TX:a:t=problem:mixed beam	!	!	!	!	!	!	!	!	!
8B\L	.	4cc#\	.	4ff#\	.	.	.	.	.
8BB/	.	.	.	.	.	.	.	.	.
8F#\J	.	16cc#\LL	.	8ee\	.	.	.	.	.
.	.	16dd\JJ	.	.	.	.	.	.	.
!	!	!LO:PB:g=original	!	!LO:LB:g=original	!	!	!	!	!
=41	=41	=41	=41	=41	=41	=41	=41	=41	=41
8B\L	.	8f#/L	.	24dd\LL	.	1ryy	.	.	.
.	.	.	.	24cc#\	.	.	.	.	.
.	.	.	.	24b\JJ	.	.	.	.	.
8E\	.	8g/	.	24gg\LL	.	.	.	.	.
.	.	.	.	24ff#\	.	.	.	.	.
.	.	.	.	24ee\JJ	.	.	.	.	.
.	.	.	.	8qqee/	.	.	.	.	.
8F#\	.	8b/	.	8dd\L	.	.	.	.	.
8F#\J	.	8a#X/J	.	8cc#\J	.	.	.	.	.
.	.	.	.	8qqcc#/	.	.	.	.	.
!	!	!	!LO:DY:t=for.	!	!	!	!	!	!
!	!	!	!LO:DY:a	!	!	!	!	!	!
8BB/L	.	8b\L	f	8b\L	.	.	.	.	.
8C#/	.	8ee\	.	8aa#X\	.	.	.	.	.
8D/	.	8ff#\	.	8bb\	.	.	.	.	.
8E/J	.	8cc#\J	.	8ee\J	.	.	.	.	.
=42	=42	=42	=42	=42	=42	=42	=42	=42	=42
!LO:TX:a:t=problem:mixed beam	!	!	!	!LO:TX:a:t=problem: nieoznaczona "6"	!	!	!	!	!
8F#\L	.	4b\	.	24dd\LL	.	1ryy	.	1r	.
.	.	.	.	24ff#\	.	.	.	.	.
.	.	.	.	24ee\	.	.	.	.	.
8E\	.	.	.	24dd\	.	.	.	.	.
.	.	.	.	24cc#\	.	.	.	.	.
.	.	.	.	24b\JJ	.	.	.	.	.
8F#\	.	4a#X\	.	4cc#t\	.	.	.	.	.
8FF#/J	.	.	.	.	.	.	.	.	.
4BB/	.	8b/L	.	8b/L	.	.	.	.	.
.	.	8f#/J	.	8f#/J	.	.	.	.	.
4r	.	4B;;/	.	4B/	.	.	.	.	.
!LO:LB:g=original	!	!	!	!	!	!	!	!	!
=43	=43	=43	=43	=43	=43	=43	=43	=43	=43
!	!LO:DY:t=pianis	!	!	!	!	!	!	!	!
!	!LO:DY:a	!LO:TX:a:t=problem:mixed beam	!	!	!	!	!	!	!
8BB/L	pp	8dd\L	.	(16b\KL	.	1ryy	.	4b\	Qui-
.	.	.	.	8.bb\J)	.	.	.	.	.
8D/	.	8f#/J	.	.	.	.	.	.	.
.	.	.	.	.	.	.	.	16qqee/LL	.
.	.	.	.	.	.	.	.	16qqff#/JJ	.
8E/	.	8b\L	.	4ggT\	.	.	.	4gg'\	-a
8AA#X/J	.	8cc#\J	.	.	.	.	.	.	.
!	!	!LO:TX:a:t=problem:mixed beam	!	!	!	!	!	!	!
8BB/L	.	8dd\L	.	16ff#\LL	.	.	.	16ff#\LL	fe-
.	.	.	.	16a#X\J	.	.	.	16a#X\JJ	.
.	.	.	.	.	.	.	.	8qqa#/	.
8D/	.	8f#/	.	8b\J	.	.	.	8b\	-cit
8C#/	.	8e/	.	16r	.	.	.	8r	.
.	.	.	.	16f#/KL	.	.	.	.	.
8BB/J	.	8d/J	.	8f#t/J	.	.	.	(8b\	mi-
=44	=44	=44	=44	=44	=44	=44	=44	=44	=44
8C#/L	.	8b\L	.	8ee\	.	1ryy	.	8ee\)	.
8C#/J	.	8b\J	.	4ee\	.	.	.	8ee\	-hi
8F#\L	.	16a#X\LL	.	.	.	.	.	8ee\L	mag-
.	.	16cc#\	.	.	.	.	.	.	.
8F#\J	.	16b\	.	16dd\LL	.	.	.	16dd\L	.
.	.	16a#\JJ	.	16cc#\JJ	.	.	.	16cc#\JJ	.
4B\	.	4b\	.	16dd\LL	.	.	.	16dd\LL	-na
.	.	.	.	16cc#\J	.	.	.	16cc#\JJ	.
.	.	.	.	8b\J	.	.	.	8b\	.
8F#\L	.	8a#X\L	.	8cc#\L	.	.	.	8r	.
8F#\J	.	8a#\J	.	8cc#\J	.	.	.	8cc#\	qui
=45	=45	=45	=45	=45	=45	=45	=45	=45	=45
4B\	.	8b\L	.	8dd\L	.	1ryy	.	4dd\	po-
.	.	8b\	.	8dd\	.	.	.	.	.
8E\L	.	8a#X\	.	8cc#\	.	.	.	8cc#\L	-tens
8E#X\J	.	8b\J	.	8dd\J	.	.	.	8b\J	.
8F#\L	.	8a#X/L	.	8cc#\L	.	.	.	4a#X\	est
8F#\J	.	8a#/J	.	8cc#\J	.	.	.	.	.
4F#\	.	4a#/	.	4cc#\	.	.	.	8r	.
.	.	.	.	.	.	.	.	8a#\	et
=46	=46	=46	=46	=46	=46	=46	=46	=46	=46
8d\L	.	8dd\L	.	8ff#\L	.	1ryy	.	4dd\	sanc-
8d\	.	8dd\	.	8ff#\	.	.	.	.	.
8c#\	.	8dd\	.	8ff#\	.	.	.	4dd\	-tum
8c#\J	.	8dd\J	.	8ff#\J	.	.	.	.	.
!	!	!	!	!	!	!	!	!LO:LB:g=original	!
8B\L	.	8dd\L	.	8ff#\L	.	.	.	4dd\	no-
8B\	.	8dd\	.	8ff#\	.	.	.	.	.
8F#\	.	8dd\	.	8ff#\	.	.	.	4dd\	-men
8F#\J	.	8dd\J	.	8ff#\J	.	.	.	.	.
!	!	!	!	!LO:PB:g=original	!	!	!	!	!
=47	=47	=47	=47	=47	=47	=47	=47	=47	=47
8E/L	.	8cc#\L	.	8ee\L	.	1ryy	.	8ee\	no-
8D/	.	8dd\J	.	8ff#\J	.	.	.	8ff#\	-men
.	.	8qqff#/	.	8qqaa/	.	.	.	.	.
8C#/	.	4ee\	.	4gg\	.	.	.	4gg\	e-
8AA/J	.	.	.	.	.	.	.	.	.
8D\L	.	4dd\	.	4ff#\	.	.	.	4ff#\	-jus
8E\	.	.	.	.	.	.	.	.	.
8F#\	.	8r	.	8r	.	.	.	8dd\	Sanc-
8F#\J	.	8a/	.	8dd\	.	.	.	8a\	-tum
=48	=48	=48	=48	=48	=48	=48	=48	=48	=48
*tremolo	*	*	*	*	*	*	*	*	*
8G\L	.	4b\	.	4dd\	.	1ryy	.	8b\L	no-
8G\	.	.	.	.	.	.	.	16cc#\L	.
.	.	.	.	.	.	.	.	16dd\JJ	.
8G\	.	8r	.	8r	.	.	.	8ee\L	.
8G\J	.	8b\	.	8ee\	.	.	.	16ff#\L	.
.	.	.	.	.	.	.	.	16gg\JJ	.
!	!	!LO:LB:g=original	!	!	!	!	!	!	!
8A\L	.	4cc#\	.	4ee\	.	.	.	8cc#\L	.
8A\	.	.	.	.	.	.	.	16dd\L	.
.	.	.	.	.	.	.	.	16ee\JJ	.
8A\	.	8r	.	8r	.	.	.	8ff#\L	.
8A\J	.	8cc#\	.	8ff#\	.	.	.	16gg\L	.
.	.	.	.	.	.	.	.	16aa\JJ	.
*Xtremolo	*	*	*	*	*	*	*	*	*
=49	=49	=49	=49	=49	=49	=49	=49	=49	=49
4B\	.	4dd\	.	4ff#\	.	1ryy	.	8dd\L	.
.	.	.	.	.	.	.	.	16ee\L	.
.	.	.	.	.	.	.	.	16ff#\JJ	.
4G\	.	8ee\L	.	8gg\L	.	.	.	16gg\LL	.
.	.	.	.	.	.	.	.	16ff#\JJ	.
.	.	8dd\J	.	8ff#\J	.	.	.	16ee\LL	-men
.	.	.	.	.	.	.	.	16dd\JJ	.
!LO:LB:g=original	!	!	!	!	!	!	!	!	!
!LO:TX:a:t=problem:mixed beam	!	!	!	!	!	!	!	!	!
8A\L	.	4cc#\	.	4ee\	.	.	.	16cc#\LL	e-
.	.	.	.	.	.	.	.	16b\J	.
8AA/	.	.	.	.	.	.	.	8a\J	-jus
!	!	!	!	!	!	!	!	!LO:LB:g=original	!
8C#/	.	4r	.	4r	.	.	.	8ee\	San-
8D/J	.	.	.	.	.	.	.	8ff#\	-ctum
=50	=50	=50	=50	=50	=50	=50	=50	=50	=50
8E\L	.	1r	.	1r	.	1ryy	.	8gg\L	no-
8C#\	.	.	.	.	.	.	.	16ff#\L	.
.	.	.	.	.	.	.	.	16ee\JJ	.
8D\	.	.	.	.	.	.	.	8ff#\	.
8G\J	.	.	.	.	.	.	.	8ee\	-men
!LO:TX:a:t=problem:mixed beam	!	!	!	!	!	!	!	!	!
8A\L	.	.	.	.	.	.	.	4dd\	e-
8G\	.	.	.	.	.	.	.	.	.
8A\	.	.	.	.	.	.	.	4ee\	.
8AA/J	.	.	.	.	.	.	.	.	.
=51	=51	=51	=51	=51	=51	=51	=51	=51	=51
8D\L	.	(16dd\KL	.	(16dd\KL	.	1ryy	.	4dd\	-jus
.	.	8.ddd\J)	.	8.ddd\J)	.	.	.	.	.
8F#\	.	.	.	.	.	.	.	.	.
8G\	.	4bbT\	.	4bbT\	.	.	.	4r	.
8C#\J	.	.	.	.	.	.	.	.	.
8D\L	.	16aa\LL	.	16aa\LL	.	.	.	2r	.
.	.	16cc#\J	.	16cc#\J	.	.	.	.	.
8F#\	.	8dd\J	.	8dd\J	.	.	.	.	.
8E\	.	16r	.	16r	.	.	.	.	.
.	.	16a/KL	.	16a/KL	.	.	.	.	.
8F#\J	.	8aT/J	.	8aT/J	.	.	.	.	.
=52	=52	=52	=52	=52	=52	=52	=52	=52	=52
8E/L	.	8gg\	.	8gg\	.	1ryy	.	0r	.
8D/	.	4gg\	.	4gg\	.	.	.	.	.
8C#/	.	.	.	.	.	.	.	.	.
8AA/J	.	16ff#\LL	.	16ff#\LL	.	.	.	.	.
.	.	16ee\JJ	.	16ee\JJ	.	.	.	.	.
8D\L	.	16ff#\LL	.	16ff#\LL	.	.	.	.	.
.	.	16aa\	.	16aa\	.	.	.	.	.
8E\	.	16bb\	.	16bb\	.	.	.	.	.
.	.	16ccc#\JJ	.	16ccc#\JJ	.	.	.	.	.
8F#\	.	8ddd\L	.	8ddd\L	.	.	.	.	.
8G\J	.	8gg\J	.	8gg\J	.	.	.	.	.
=53	=53	=53	=53	=53	=53	=53	=53	=53	=53
*	*	*	*	*tuplet	*	*	*	*	*
!LO:TX:a:t=problem:mixed beam	!	!LO:TX:a:t=problem: brak oznaczenia "6"	!	!	!	!	!	!	!
8A\L	.	24ff#\LL	.	24ff#\LL	.	1ryy	.	.	.
.	.	24aa\	.	24aa\	.	.	.	.	.
.	.	24gg\	.	24gg\	.	.	.	.	.
8G\	.	24ff#\	.	24ff#\	.	.	.	.	.
.	.	24ee\	.	24ee\	.	.	.	.	.
.	.	24dd\JJ	.	24dd\JJ	.	.	.	.	.
8A\	.	4eeT\	.	4eeT\	.	.	.	.	.
8AA/J	.	.	.	.	.	.	.	.	.
!	!	!LO:TX:a:t=problem: niepełny takt	!	!	!	!	!	!	!
4D\	.	2ryy	.	8dd\L	.	.	.	.	.
.	.	.	.	8a\J	.	.	.	.	.
4r	.	.	.	4d/	.	.	.	.	.
!	!	!LO:LB:g=original	!	!	!	!	!	!	!
=54	=54	=54	=54	=54	=54	=54	=54	=54	=54
!	!LO:DY:t=p:	!	!	!	!	!	!	!	!
!	!LO:DY:a	!	!	!	!	!	!	!	!
*tremolo	*	*	*	*	*	*	*	*	*
8D\L	p	8a/L	.	4ff#\	.	1ryy	.	4dd\	Et
8D\	.	8a/	.	.	.	.	.	.	.
8D\	.	8a/	.	4ff#\	.	.	.	4ff#\	mi-
8D\J	.	8a/J	.	.	.	.	.	.	.
*Xtremolo	*	*	*	*	*	*	*	*	*
!	!	!	!	!LO:LB:g=original	!	!	!	!	!
8A\L	.	4cc#\	.	8ff#\L	.	.	.	16ee\LL	-se-
.	.	.	.	.	.	.	.	16dd\	.
8A\J	.	.	.	8ee\J	.	.	.	16cc#\	.
.	.	.	.	.	.	.	.	16b\JJ	.
4AA/	.	8r	.	8r	.	.	.	8a\	-ri-
.	.	16cc#\LL	.	16ee\LL	.	.	.	16ee\LL	.
.	.	16dd\JJ	.	16ff#\JJ	.	.	.	16ff#\JJ	.
=55	=55	=55	=55	=55	=55	=55	=55	=55	=55
8r	.	8ee\L	.	4gg\	.	1ryy	.	4gg\	-cor-
8AA/L	.	8cc#\	.	.	.	.	.	.	.
!	!	!	!	!	!	!	!	!LO:LB:g=original	!
8BB/	.	8dd\	.	8gg\L	.	.	.	8gg\	-di-
8C#/J	.	8ee\J	.	16ff#\L	.	.	.	16ff#\LL	-a
.	.	.	.	16ee\JJ	.	.	.	16ee\JJ	.
4D\	.	4a/	.	8ff#\L	.	.	.	16ff#\LL	e-
.	.	.	.	.	.	.	.	16ee\JJ	.
.	.	.	.	16ee\L	.	.	.	8dd\	-jus
.	.	.	.	16dd\JJ	.	.	.	.	.
8F#\L	.	8a/L	.	8dd\L	.	.	.	8dd\	a
8E\J	.	8g/J	.	8dd\J	.	.	.	8dd\	pro-
!LO:LB:g=original	!	!	!	!	!	!	!	!	!
=56	=56	=56	=56	=56	=56	=56	=56	=56	=56
8D\L	.	8f#/L	.	8dd\L	.	1ryy	.	8dd\L	-ge-
8E\	.	8g/	.	8dd\	.	.	.	16ff#\L	.
.	.	.	.	.	.	.	.	16gg\JJ	.
8F#\	.	8a/	.	8dd\	.	.	.	8aa\	.
8D\J	.	8f#/J	.	8ccn\J	.	.	.	8ccn\	-ni-
!LO:TX:a:t=problem:mixed beam	!	!LO:TX:a:t=problem:mixed beam	!	!	!	!	!	!	!
.	.	.	.	.	.	.	.	8qqcc/	.
8G\L	.	8d/L	.	8b\L	.	.	.	4b\	-es
8GG/	.	8d/	.	8ee\	.	.	.	.	.
8G#X\	.	8b\	.	8ee\	.	.	.	8ee\	in
8F#\J	.	8a\J	.	8ee\J	.	.	.	8ee\	pro-
=57	=57	=57	=57	=57	=57	=57	=57	=57	=57
8E\L	.	8g#X/L	.	8ee\L	.	1ryy	.	8ee\L	-ge-
8F#\	.	8a/	.	8ee\	.	.	.	16gg#X\L	.
.	.	.	.	.	.	.	.	16aa\JJ	.
8G#X\	.	8b/	.	8ee\	.	.	.	8bb\L	.
8E\J	.	8g#X/J	.	8dd\J	.	.	.	8dd\J	-ni-
*tremolo	*	*	*	*	*	*	*	*	*
!	!	!LO:TX:a:t=problem:mixed beam	!	!	!	!	!	!	!
8AA/L	.	8e/L	.	8cc#\L	.	.	.	4cc#\	-es
8AA/	.	8cc#\	.	8ee\	.	.	.	.	.
8AA/	.	8cc#\	.	8ee\	.	.	.	4ee\	ti-
8AA/J	.	8cc#\J	.	8ee\J	.	.	.	.	.
!	!	!	!	!	!	!	!	!LO:LB:g=original	!
=58	=58	=58	=58	=58	=58	=58	=58	=58	=58
8AA/L	.	8cc#\L	.	8ee\L	.	1ryy	.	16ee\LL	-men-
.	.	.	.	.	.	.	.	16cc#\J	.
8AA/	.	8cc#\	.	8ee\	.	.	.	8a\J	.
8AA/	.	8cc#\	.	8ee\	.	.	.	4ee\	.
8AA/J	.	8cc#\J	.	8ee\J	.	.	.	.	.
8AA/L	.	8dd\L	.	8ff#\L	.	.	.	16ff#\LL	.
.	.	.	.	.	.	.	.	16dd\J	.
8AA/	.	8dd\	.	8ff#\	.	.	.	8a\J	.
8AA/	.	8dd\	.	8ff#\	.	.	.	4ff#\	.
8AA/J	.	8dd\J	.	8ff#\J	.	.	.	.	.
=59	=59	=59	=59	=59	=59	=59	=59	=59	=59
8AA/L	.	8ee\L	.	8gg\L	.	1ryy	.	16gg\LL	.
.	.	.	.	.	.	.	.	16ff#\	.
8AA/	.	8ee\	.	8gg\	.	.	.	16ee\	.
.	.	.	.	.	.	.	.	16dd\JJ	.
8AA/	.	8ee\	.	8gg\	.	.	.	16cc#\LL	.
.	.	.	.	.	.	.	.	16b\	.
8AA/J	.	8ee\J	.	8gg\J	.	.	.	16a\	.
.	.	.	.	.	.	.	.	16g\JJ	.
*Xtremolo	*	*	*	*	*	*	*	*	*
!	!	!	!	!	!	!	!	!LO:TX:a:t=problem:mixed beam	!
4D\	.	8dd\L	.	8ff#\L	.	.	.	8f#/L	.
.	.	8b\	.	8gg\	.	.	.	8gg\J	.
8r	.	8a\	.	8ff#\	.	.	.	8ff#\	-ti-
8G\	.	8g\J	.	8ee\J	.	.	.	8ee\	-bus
=60	=60	=60	=60	=60	=60	=60	=60	=60	=60
!LO:TX:a:t=problem:mixed beam	!	!	!	!	!	!	!	!	!
8A\L	.	4f#/	.	4dd\	.	1ryy	.	4dd\	e-
8A\	.	.	.	.	.	.	.	.	.
8AA/	.	4cc#\	.	4ee\	.	.	.	4ee\	.
8AA/J	.	.	.	.	.	.	.	.	.
4D\	.	4dd\	.	4dd\	.	.	.	4dd\	-um
4r	.	4ee\	.	4ff#\	.	.	.	4ff#\	ti-
=61	=61	=61	=61	=61	=61	=61	=61	=61	=61
4BB/	.	8dd\L	.	8ff#\L	.	1ryy	.	8ff#\L	-men-
.	.	16cc#\L	.	16ee\L	.	.	.	16ee\L	.
.	.	16b\JJ	.	16dd\JJ	.	.	.	16dd\JJ	.
4E\	.	8g/L	.	8cc#\L	.	.	.	8cc#\	-ti-
.	.	8g/J	.	8b\J	.	.	.	8b\	-bus
!	!	!LO:LB:g=original	!	!LO:LB:g=original	!	!	!	!	!
8E\L	.	4f#/	.	16a#X/LL	.	.	.	16a\LL	e-
.	.	.	.	16g/J	.	.	.	16g\JJ	.
16F#\L	.	.	.	8f#/J	.	.	.	8f#/	-um
16E\JJ	.	.	.	.	.	.	.	.	.
16D\LL	.	8r	.	8r	.	.	.	8r	.
16C#\J	.	.	.	.	.	.	.	.	.
8BB\J	.	8dd\	.	8ff#\	.	.	.	8ff#\	ti-
!	!	!	!	!	!	!	!	!LO:LB:g=original	!
=62	=62	=62	=62	=62	=62	=62	=62	=62	=62
8r	.	16dd\LL	.	16ff#\LL	.	1ryy	.	16ff#\LL	-men-
.	.	16ee\JJ	.	16gg\JJ	.	.	.	16gg\JJ	.
8B\	.	4dd\	.	4ff#\	.	.	.	4ff#\	.
4BB/	.	.	.	.	.	.	.	.	.
.	.	8ee\	.	8gg\	.	.	.	8gg\	.
!LO:LB:g=original	!	!	!	!	!	!	!	!	!
8r	.	16dd\LL	.	16ff#\LL	.	.	.	16ff#\LL	.
.	.	16ee\JJ	.	16gg\JJ	.	.	.	16gg\J	.
!LO:TX:a:t=problem:mixed beam	!	!	!	!	!	!	!	!	!
8B\L	.	4dd\	.	4ff#\	.	.	.	8ff#\J	.
8BB/	.	.	.	.	.	.	.	8ff#\	-ti-
8F#\J	.	8cc#\	.	8ee\	.	.	.	8ee\	-bus
=63	=63	=63	=63	=63	=63	=63	=63	=63	=63
*	*	*	*	*Xtuplet	*	*	*	*Xtuplet	*
!LO:TX:a:t=problem:mixed beam	!	!	!	!	!	!	!	!LO:TX:a:t=problem: brak oznaczenia triol	!
8B\L	.	8f#/L	.	24dd\LL	.	1ryy	.	24dd\LL	e-
.	.	.	.	24cc#\	.	.	.	24cc#\	.
.	.	.	.	24b\JJ	.	.	.	24b\JJ	.
8E\	.	8g/	.	24gg\LL	.	.	.	24gg\LL	.
.	.	.	.	24ff#\	.	.	.	24ff#\	.
.	.	.	.	24ee\JJ	.	.	.	24ee\JJ	.
8F#\	.	8b/	.	8dd\L	.	.	.	8dd\L	.
8FF#/J	.	8a#X/J	.	8cc#\J	.	.	.	8cc#\J	.
!	!	!	!	!LO:TX:a:t=t	!	!	!	!	!
8BB/L	.	4b\	.	4b\	.	.	.	4b\	-um
8C#/	.	.	.	.	.	.	.	.	.
8D/	.	8r	.	8r	.	.	.	8r	.
8BB/J	.	8dd\	.	8ff#\	.	.	.	8ff#\	ti-
=64	=64	=64	=64	=64	=64	=64	=64	=64	=64
8r	.	16dd\LL	.	16ff#\LL	.	1ryy	.	16ff#\LL	-men-
.	.	16ee\JJ	.	16gg\JJ	.	.	.	16gg\JJ	.
8B\	.	4dd\	.	4ff#\	.	.	.	4ff#\	.
4BB/	.	.	.	.	.	.	.	.	.
.	.	8ee\	.	8gg\	.	.	.	8gg\	.
8r	.	16dd\LL	.	16ff#\LL	.	.	.	16ff#\LL	.
.	.	16ee\JJ	.	16gg\JJ	.	.	.	16gg\J	.
!LO:TX:a:t=problem:mixed beam	!	!	!	!	!	!	!	!	!
8B\L	.	4dd\	.	4ff#\	.	.	.	8ff#\J	.
8BB/	.	.	.	.	.	.	.	8ff#\	-ti-
8F#\J	.	8cc#\	.	8ee\	.	.	.	8ee\	-bus
!	!	!	!	!	!	!	!	!LO:LB:g=original	!
=65	=65	=65	=65	=65	=65	=65	=65	=65	=65
!LO:TX:a:t=problem:mixed beam	!	!	!	!	!	!	!	!	!
8B\L	.	8f#/L	.	24dd\LL	.	1ryy	.	24dd\LL	e-
.	.	.	.	24cc#\	.	.	.	24cc#\	.
.	.	.	.	24b\JJ	.	.	.	24b\JJ	.
8E\	.	8g/	.	24gg\LL	.	.	.	24gg\LL	.
.	.	.	.	24ff#\	.	.	.	24ff#\	.
.	.	.	.	24ee\JJ	.	.	.	24ee\JJ	.
8F#\	.	8b/	.	8dd\L	.	.	.	8dd\L	.
8FF#/J	.	8a#X/J	.	8cc#\J	.	.	.	8cc#\J	.
8BB/L	.	8b\L	.	8b\L	.	.	.	4b\	-um
8C#/	.	8ee\	.	8aa#X\	.	.	.	.	.
8D/	.	8ff#\	.	8bb\	.	.	.	8r	.
8E/J	.	8cc#\J	.	8ee\J	.	.	.	8ee\	e-
=66	=66	=66	=66	=66	=66	=66	=66	=66	=66
*	*	*	*	*2\right	*	*	*	*	*
2F#;\	.	2b/	.	2dd;\	.	1ryy	.	2dd;\	.
!	!	!LO:TX:a:t=problem: pojedyncza kreska taktowa na koniec taktu	!	!LO:TX:a:t=problem: pojedyncza kreska taktowa na koniec taktu	!	!	!	!	!
!LO:TX:a:t=Da Capo	!	!LO:TX:a:t=Da capo	!	!LO:TX:a:t=Da capo	!	!	!	!	!
2FF#/	.	2a#X/	.	2cc#\	.	.	.	2cc#\	.
=67	=67	=67	=67	=67	=67	=67	=67	=67	=67
1ryy	.	1ryy	.	1ryy	.	1ryy	.	4b\	-um
.	.	.	.	.	.	.	.	4r	.
.	.	.	.	.	.	.	.	2r	.
=68	=68	=68	=68	=68	=68	=68	=68	=68	=68
1ryy	.	1ryy	.	1ryy	.	1ryy	.	00r	.
=69	=69	=69	=69	=69	=69	=69	=69	=69	=69
1ryy	.	1ryy	.	1ryy	.	1ryy	.	.	.
=70	=70	=70	=70	=70	=70	=70	=70	=70	=70
1ryy	.	1ryy	.	1ryy	.	1ryy	.	.	.
=71	=71	=71	=71	=71	=71	=71	=71	=71	=71
1ryy	.	1ryy	.	1ryy	.	1ryy	.	.	.
=72	=72	=72	=72	=72	=72	=72	=72	=72	=72
1ryy	.	1ryy	.	1ryy	.	1ryy	.	00r	.
=73	=73	=73	=73	=73	=73	=73	=73	=73	=73
1ryy	.	1ryy	.	1ryy	.	1ryy	.	.	.
=74	=74	=74	=74	=74	=74	=74	=74	=74	=74
1ryy	.	1ryy	.	1ryy	.	1ryy	.	.	.
=75	=75	=75	=75	=75	=75	=75	=75	=75	=75
1ryy	.	1ryy	.	1ryy	.	1ryy	.	.	.
=76	=76	=76	=76	=76	=76	=76	=76	=76	=76
1ryy	.	1ryy	.	1ryy	.	1ryy	.	00r	.
=77	=77	=77	=77	=77	=77	=77	=77	=77	=77
1ryy	.	1ryy	.	1ryy	.	1ryy	.	.	.
=78	=78	=78	=78	=78	=78	=78	=78	=78	=78
1ryy	.	1ryy	.	1ryy	.	1ryy	.	.	.
=79	=79	=79	=79	=79	=79	=79	=79	=79	=79
!	!	!	!	!	!	!	!	!LO:TX:a:t=problem:ozdobna kreska taktowa	!
1ryy	.	1ryy	.	1ryy	.	1ryy	.	.	.
!	!	!LO:LB:g=original	!	!LO:LB:g=original	!	!LO:LB:g=original	!	!LO:LB:g=original	!
=80||	=80||	=80||	=80||	=80||	=80||	=80||	=80||	=80||;;	=80||
*>D	*	*>D	*	*>D	*	*>D	*	*>D	*
*M3/4	*	*M3/4	*	*M3/4	*	*M3/4	*	*M3/4	*
!LO:TX:a:t=problem: nieczytelne oznaczenie tempa	!	!	!	!	!	!	!	!	!
!LO:TX:a:t=allo n mol	!	!	!	!	!	!	!	!	!
!LO:TX:b:t=Fecit potentiam	!	!	!	!LO:TX:b:t=Fecit potentiam	!	!	!	!	!
4BB/	.	8b\	.	8b\	.	4B\	Fe-	4dd\	Fe-
!	!	!	!	!LO:TX:a:t=a Tempo	!	!	!	!	!
.	.	4b\	.	4dd\	.	.	.	.	.
4D/	.	.	.	.	.	4B\	-cit	4dd\	-cit
.	.	4dd\	.	4ff#\	.	.	.	.	.
4BB/	.	.	.	.	.	4B\	po-	4dd\	po-
.	.	8dd\	.	8bb\	.	.	.	.	.
=81	=81	=81	=81	=81	=81	=81	=81	=81	=81
4F#\	.	8cc#\	.	8aa#X\	.	4A#X\	-ten-	4cc#\	-ten-
.	.	4ee\	.	4ggn\	.	.	.	.	.
4A#X\	.	.	.	.	.	4A#\	-ti-	4cc#\	-ti-
.	.	4dd\	.	4ff#\	.	.	.	.	.
4F#\	.	.	.	.	.	4A#\	-am	4cc#\	-am
.	.	8cc#\	.	8ee\	.	.	.	.	.
=82	=82	=82	=82	=82	=82	=82	=82	=82	=82
4B\	.	4b\	.	8dd\	.	4B\	in	4dd\	in
.	.	.	.	4cc#\	.	.	.	.	.
4E\	.	4g/	.	.	.	4B\	bra-	4dd\	bra-
.	.	.	.	8b\	.	.	.	.	.
4E\	.	4g/	.	8gg\L	.	8B\	-chi-	8dd\	-hi-
.	.	.	.	8b\J	.	8B\	-o	8dd\	-o
=83	=83	=83	=83	=83	=83	=83	=83	=83	=83
4F#\	.	4c#/	.	4a#X/	.	4A#X\	Su-	4cc#\	Su-
8BB/L	.	4d/	.	4b/	.	4B\	-o	4dd\	-o
8E/	.	.	.	.	.	.	.	.	.
8D/	.	4r	.	4r	.	4r	.	4r	.
8C#/J	.	.	.	.	.	.	.	.	.
=84	=84	=84	=84	=84	=84	=84	=84	=84	=84
4.BB/	.	4.dd#X\	.	8b\	.	4d#X\	dis-	4ff#\	dis-
.	.	.	.	4bb\	.	.	.	.	.
.	.	.	.	.	.	4d#\	-per-	4ff#\	-per-
8D#X/L	.	8b\L	.	4aa\	.	.	.	.	.
8C#/	.	8cc#\	.	.	.	8c#\	-sit	8ee\	-sit
8BB/J	.	8dd#\J	.	16gg\LL	.	8d#\	Su-	8ff#\	Su-
.	.	.	.	16ff#\JJ	.	.	.	.	.
=85	=85	=85	=85	=85	=85	=85	=85	=85	=85
4.E\	.	8ee\	.	4.gg\	.	4e\	-per-	4gg\	-per-
.	.	4ee\	.	.	.	.	.	.	.
.	.	.	.	.	.	4e\	-bos	4gg\	-bos
8G\L	.	4dd\	.	8ee\L	.	.	.	.	.
8F#\	.	.	.	8ff#\	.	8d\L	dis-	8ff#\L	dis-
8E\J	.	16cc#\LL	.	8gg\J	.	8e\J	.	8gg\J	.
.	.	16b\JJ	.	.	.	.	.	.	.
!	!	!	!	!	!	!	!	!LO:LB:g=original	!
=86	=86	=86	=86	=86	=86	=86	=86	=86	=86
4.A\	.	4.cc#\	.	8aa\	.	4c#\	-per-	4ee\	-per-
.	.	.	.	4aa\	.	.	.	.	.
.	.	.	.	.	.	4c#\	-sit	4ee\	-bos
8C#/L	.	8a/L	.	4gg\	.	.	.	.	.
8BB/	.	8b/	.	.	.	8B\L	su-	8dd\L	dis-
8AA/J	.	8cc#/J	.	16ff#\LL	.	8c#\J	.	8ee\J	.
.	.	.	.	16ee\JJ	.	.	.	.	.
=87	=87	=87	=87	=87	=87	=87	=87	=87	=87
4.D\	.	8dd\	.	4.ff#\	.	4d\	-per-	4ff#\	-per-
.	.	4dd\	.	.	.	.	.	.	.
.	.	.	.	.	.	4d\	-bos	4ff#\	-sit
8F#\L	.	4cc#\	.	8dd\L	.	.	.	.	.
!	!	!	!	!	!	!LO:LB:g=original	!	!	!
8E\	.	.	.	8ee\	.	8cn\L	su-	8ee\L	dis-
8D\J	.	16b\LL	.	8ff#\J	.	8d\J	.	8ff#\J	.
.	.	16a\JJ	.	.	.	.	.	.	.
=88	=88	=88	=88	=88	=88	=88	=88	=88	=88
4.G\	.	4.b\	.	8gg\	.	4B\	-per-	4dd\	-per-
.	.	.	.	4gg\	.	.	.	.	.
.	.	.	.	.	.	4B\	-bos	4dd\	-sit
8BB/L	.	8g/L	.	4ff#\	.	.	.	.	.
8AA#X/	.	8a/	.	.	.	8A\L	Su-	8cc#\L	dis-
8GG/J	.	8b/J	.	16ee\LL	.	8B\J	.	8dd\J	.
.	.	.	.	16dd\JJ	.	.	.	.	.
!	!	!	!	!LO:LB:g=original	!	!	!	!	!
=89	=89	=89	=89	=89	=89	=89	=89	=89	=89
4C#/	.	8cc#\	.	4ee\	.	4c#\	-per-	4ee\	-per-
.	.	4cc#\	.	.	.	.	.	.	.
8r	.	.	.	8r	.	4c#\	-bos	4ee\	-sit
8E\L	.	4b\	.	8cc#\L	.	.	.	.	.
8D\	.	.	.	8dd\	.	8B\L	Su-	8dd\L	Su-
8C#\J	.	16a#X/LL	.	8ee\J	.	8c#\J	.	8ee\J	.
!	!	!LO:TX:a:t=SIC:s=g#	!	!	!	!	!	!	!
.	.	16g/JJ	.	.	.	.	.	.	.
!LO:LB:g=original	!	!	!	!	!	!	!	!	!
=90	=90	=90	=90	=90	=90	=90	=90	=90	=90
!	!	!	!	!	!	!LO:TX:a:t=SIC:s=A#	!	!LO:N:vis=8.	!
4D\	.	4.a#X/	.	8ff#\	.	8A\	-per-	4.cc#\	-per-
!	!	!	!	!	!	!LO:TX:a:t=SIC:s=A#	!	!	!
!	!	!	!	!	!	!LO:N:vis=8	!	!	!
.	.	.	.	4ff#\	.	4A\	-bos	.	.
8r	.	.	.	.	.	.	.	.	.
!	!	!	!	!	!	!LO:TX:a:t=SIC:s=A#	!	!	!
!	!	!LO:TX:a:t=problem:mixed beam	!	!	!	!LO:N:vis=8	!	!LO:N:vis=8.	!
8A#X\L	.	8cc#\L	.	4ee\	.	4A\	men-	8cc#\	-bos
8G\	.	8f#/	.	.	.	.	.	8cc#\	men-
!	!	!	!	!	!	!LO:TX:a:t=SIC:s=A#	!	!	!
8F#\J	.	8g#X/J	.	16dd\LL	.	8A\	-te	8cc#\	-te
.	.	.	.	16cc#\JJ	.	.	.	.	.
!	!	!LO:LB:g=original	!	!	!	!	!	!	!
=91	=91	=91	=91	=91	=91	=91	=91	=91	=91
!	!	!	!	!LO:TX:a:t=problem:rak oznaczenia triol	!	!	!	!	!
4B\	.	4b\	.	12dd\L	.	8B\	cor-	8dd\	cor-
.	.	.	.	12cc#\	.	.	.	.	.
.	.	.	.	.	.	8G/	-dis	8b\	-dis
.	.	.	.	12b\J	.	.	.	.	.
*	*	*2\right	*	*	*	*	*	*	*
!	!	!	!	!	!	!LO:TX:a:t=SIC:s=A#	!	!	!
4F#\	.	2a#X\	.	2cc#t\	.	2A\	su-	2cc#\	su-
4FF#/	.	.	.	.	.	.	.	.	.
!	!	!	!	!	!	!	!	!LO:LB:g=original	!
=92	=92	=92	=92	=92	=92	=92	=92	=92	=92
4BB/	.	4b\	.	4b\	.	4G/	-i	4b\	-i
4G\	.	16ee\LL	.	16ee\LL	.	4c#\	Cor-	4ee\	men-
.	.	16ff#\	.	16ff#\	.	.	.	.	.
.	.	16gg\	.	16gg\	.	.	.	.	.
.	.	16aa\JJ	.	16aa\JJ	.	.	.	.	.
4G\	.	8bb\L	.	8bb\L	.	4B\	-dis	4dd\	-te
.	.	8dd\J	.	8dd\J	.	.	.	.	.
=93	=93	=93	=93	=93	=93	=93	=93	=93	=93
8A\L	.	8e/L	.	8cc#\L	.	8A\	Su-	8cc#\	cor-
8D\J	.	8f#/J	.	8dd\J	.	8B\	.	8dd\	-dis
4A\	.	4f#/	.	4a\	.	2c#\	.	2ee\	Su-
4AA/	.	4e/	.	4cc#\	.	.	.	.	.
!	!	!	!	!	!	!LO:LB:g=original	!	!	!
=94	=94	=94	=94	=94	=94	=94	=94	=94	=94
4D\	.	8f#/	.	8dd\	.	4B\	-i	4dd\	-i
.	.	4ff#\	.	4aa\	.	.	.	.	.
4D\	.	.	.	.	.	4r	.	4r	.
.	.	4ff#\	.	4ddd\	.	.	.	.	.
4D\	.	.	.	.	.	4r	.	4r	.
.	.	8gg\	.	8bb\	.	.	.	.	.
=95	=95	=95	=95	=95	=95	=95	=95	=95	=95
!	!	!	!	!	!	!LO:N:vis=00	!	!LO:N:vis=00	!
4D\	.	8ff#\	.	8aa\	.	0.r	.	0.r	.
.	.	4ee\	.	4gg\	.	.	.	.	.
4A\	.	.	.	.	.	.	.	.	.
.	.	4dd\	.	4ff#\	.	.	.	.	.
4AA/	.	.	.	.	.	.	.	.	.
.	.	8cc#\	.	8ee\	.	.	.	.	.
=96	=96	=96	=96	=96	=96	=96	=96	=96	=96
!	!LO:DY:a	!	!	!	!	!	!	!	!
4D\	p	8dd\	.	8ff#\	.	.	.	.	.
.	.	4f#/	.	4a/	.	.	.	.	.
4D\	.	.	.	.	.	.	.	.	.
.	.	4f#/	.	4dd\	.	.	.	.	.
4D\	.	.	.	.	.	.	.	.	.
.	.	8g/	.	8b\	.	.	.	.	.
=97	=97	=97	=97	=97	=97	=97	=97	=97	=97
4D\	.	8f#/	.	8a/	.	.	.	.	.
.	.	4e/	.	4g/	.	.	.	.	.
4A\	.	.	.	.	.	.	.	.	.
.	.	4d/	.	4f#/	.	.	.	.	.
4AA/	.	.	.	.	.	.	.	.	.
.	.	8c#/	.	8e/	.	.	.	.	.
!	!	!	!	!LO:LB:g=original	!	!	!	!	!
=98	=98	=98	=98	=98	=98	=98	=98	=98	=98
!	!	!	!	!LO:TX:a:t=problem:mixed beam	!	!	!	!	!
4D\	.	4d/	.	8.f#/L	.	.	.	.	.
.	.	.	.	16bb\Jk	.	.	.	.	.
4G\	.	4b\	.	2ee\	.	.	.	.	.
4G\	.	4b\	.	.	.	.	.	.	.
=99	=99	=99	=99	=99	=99	=99	=99	=99	=99
.	.	.	.	8qqdd/	.	.	.	.	.
!	!	!	!	!	!	!LO:N:vis=0	!	!LO:N:vis=0	!
4A\	.	8e/L	.	8.cc#\L	.	1.r	.	1.r	.
.	.	8g/J	.	.	.	.	.	.	.
.	.	.	.	16ee\Jk	.	.	.	.	.
4AA/	.	2e/	.	2g/	.	.	.	.	.
4AA/	.	.	.	.	.	.	.	.	.
=100	=100	=100	=100	=100	=100	=100	=100	=100	=100
4D\	.	4d/	.	12f#/L	.	.	.	.	.
.	.	.	.	12e/	.	.	.	.	.
.	.	.	.	12d/J	.	.	.	.	.
4A\	.	2cc#t\	.	2eeT\	.	.	.	.	.
4AA/	.	.	.	.	.	.	.	.	.
=101	=101	=101	=101	=101	=101	=101	=101	=101	=101
!LO:TX:a:t=problem:brak taktu	!	!	!	!LO:TX:A:t=problem:brak taktu	!	!LO:TX:a:t=problem:nadmiarowy takt	!	!	!
2.ryy	.	2.ryy	.	2.ryy	.	2.ryy	.	2.r	.
=102	=102	=102	=102	=102	=102	=102	=102	=102	=102
4D\	.	8dd\	.	8dd\	.	4d\	De-	4ff#\	De-
.	.	4dd\	.	4ff#\	.	.	.	.	.
4F#\	.	.	.	.	.	8d\	-po-	8ff#\	-po-
.	.	4ff#\	.	4aa\	.	8d\	-su-	8ff#\	-su-
4D\	.	.	.	.	.	8d\	-it	8ff#\	-it
.	.	8ff#\	.	8ddd\	.	8d\	po-	8ff#\	po-
!LO:LB:g=original	!	!LO:LB:g=original	!	!	!	!	!	!	!
=103	=103	=103	=103	=103	=103	=103	=103	=103	=103
4A\	.	8ee\	.	8ccc#\	.	4c#\	-ten-	4ee\	-ten-
.	.	4gg\	.	4bb\	.	.	.	.	.
4c#\	.	.	.	.	.	4c#\	-tes	4ee\	-tes
.	.	4ff#\	.	4aa\	.	.	.	.	.
4A\	.	.	.	.	.	4c#\	po-	4ee\	po-
.	.	8ee\	.	8gg\	.	.	.	.	.
=104	=104	=104	=104	=104	=104	=104	=104	=104	=104
4d\	.	8dd\	.	8ff#\	.	4d\	-ten-	4ff#\	-ten-
.	.	4b\	.	4ee\	.	.	.	.	.
4G\	.	.	.	.	.	4d\	-tes	4ff#\	-tes
.	.	8b\	.	8dd\	.	.	.	.	.
4G\	.	8dd\L	.	8bb\L	.	4d\	de	4ff#\	de
.	.	8b\J	.	8dd\J	.	.	.	.	.
!	!	!	!	!	!	!	!	!LO:LB:g=original	!
=105	=105	=105	=105	=105	=105	=105	=105	=105	=105
4A\	.	4e/	.	4cc#\	.	4c#\	se-	4ee\	se-
8D\L	.	4f#/	.	4dd\	.	4d\	-de	4ff#\	-de
8G\	.	.	.	.	.	.	.	.	.
8F#\	.	4r	.	4r	.	4r	.	4r	.
8E\J	.	.	.	.	.	.	.	.	.
=106	=106	=106	=106	=106	=106	=106	=106	=106	=106
4D\	.	4ff#\	.	16dd\LL	.	4d\	et	4ff#\	et
.	.	.	.	16ff#\	.	.	.	.	.
.	.	.	.	16ee\	.	.	.	.	.
.	.	.	.	16dd\JJ	.	.	.	.	.
4D\	.	4ff#\	.	16aa\LL	.	8d\	Ex-	8ff#\	ex-
.	.	.	.	16gg\	.	.	.	.	.
.	.	.	.	16ff#\	.	8d\	-al-	8ff#\	-al-
.	.	.	.	16ee\JJ	.	.	.	.	.
4D\	.	4ff#\	.	8ddd\L	.	8d\	-ta-	8ff#\	-ta-
.	.	.	.	8cccn\J	.	8cn\	-vit	8ff#\	-vit
!	!	!	!	!	!	!LO:PB:g=original	!	!	!
=107	=107	=107	=107	=107	=107	=107	=107	=107	=107
4G\	.	16gg\LL	.	4bb\	.	4.B\	hu-	4.gg\	hu-
.	.	16b\	.	.	.	.	.	.	.
.	.	16a\	.	.	.	.	.	.	.
.	.	16g\JJ	.	.	.	.	.	.	.
4G\	.	16dd\LL	.	4bb\	.	.	.	.	.
.	.	16b\	.	.	.	.	.	.	.
.	.	16a\	.	.	.	8B\	-mi-	8gg\	-mi-
.	.	16g\JJ	.	.	.	.	.	.	.
4G\	.	8gg\L	.	4bb\	.	4B\	-les	4gg\	-les
.	.	8ffn\J	.	.	.	.	.	.	.
!	!	!	!	!LO:LB:g=original	!	!	!	!	!
=108	=108	=108	=108	=108	=108	=108	=108	=108	=108
4E\	.	4ee\	.	16ee\LL	.	4e\	e-	4gg#X\	E-
.	.	.	.	16gg#X\	.	.	.	.	.
.	.	.	.	16ff#\	.	.	.	.	.
.	.	.	.	16ee\JJ	.	.	.	.	.
4E\	.	4gg#X\	.	16bb\LL	.	4e\	-su-	4gg#\	-su-
.	.	.	.	16gg#\	.	.	.	.	.
.	.	.	.	16ff#\	.	.	.	.	.
.	.	.	.	16ee\JJ	.	.	.	.	.
4E\	.	4gg#\	.	8eee\L	.	8e\L	-ri-	4gg#\	-ri-
.	.	.	.	8ddd\J	.	8d\J	.	.	.
=109	=109	=109	=109	=109	=109	=109	=109	=109	=109
4A\	.	16aa\LL	.	4ccc#X\	.	2c#X\	-en-	2aa\	-en-
.	.	16cc#\	.	.	.	.	.	.	.
.	.	16b\	.	.	.	.	.	.	.
.	.	16a\JJ	.	.	.	.	.	.	.
4A\	.	16ee\LL	.	4ccc#\	.	.	.	.	.
.	.	16cc#\	.	.	.	.	.	.	.
.	.	16b\	.	.	.	.	.	.	.
.	.	16a\JJ	.	.	.	.	.	.	.
4A\	.	8aa\L	.	4ccc#\	.	4d\	-tes	4aa\	-tes
.	.	8ggn\J	.	.	.	.	.	.	.
=110	=110	=110	=110	=110	=110	=110	=110	=110	=110
4D\	.	8ff#\	.	8ddd\	.	4d\	im-	4ff#\	im-
.	.	4a/	.	4dd\	.	.	.	.	.
4F#\	.	.	.	.	.	4d\	-ple-	4ff#\	-ple-
.	.	4dd\	.	4ff#\	.	.	.	.	.
4D\	.	.	.	.	.	4d\	-vut	4ff#\	-vit
.	.	8ff#\	.	8aa\	.	.	.	.	.
!	!	!	!	!	!	!	!	!LO:LB:g=original	!
=111	=111	=111	=111	=111	=111	=111	=111	=111	=111
4A\	.	8cc#\	.	8ee\	.	4c#\	bo-	4ee\	bo-
.	.	4a\	.	4cc#\	.	.	.	.	.
4AA/	.	.	.	.	.	2c#\	-nis	2ee\	-nis
.	.	4cc#\	.	4ee\	.	.	.	.	.
4AA/	.	.	.	.	.	.	.	.	.
.	.	8ee\	.	8gg\	.	.	.	.	.
!	!	!LO:LB:g=original	!	!	!	!	!	!	!
=112	=112	=112	=112	=112	=112	=112	=112	=112	=112
4D\	.	8dd\	.	8ff#\	.	4A\	et	4ff#\	et
.	.	4A/	.	4d/	.	.	.	.	.
4F#\	.	.	.	.	.	4A\	di-	4ff#\	di-
.	.	4d/	.	4f#/	.	.	.	.	.
4D\	.	.	.	.	.	4A\	-vi-	4ff#\	-vi-
.	.	8f#/	.	8a/	.	.	.	.	.
!LO:LB:g=original	!	!	!	!	!	!	!	!	!
=113	=113	=113	=113	=113	=113	=113	=113	=113	=113
4A\	.	8c#/	.	8e/	.	2c#\	-tes	2ee\	-tes
.	.	4A/	.	4c#/	.	.	.	.	.
4AA/	.	.	.	.	.	.	.	.	.
.	.	4c#/	.	4e/	.	.	.	.	.
4AA/	.	.	.	.	.	4c#\	di-	4ee\	di-
.	.	8e/	.	8g/	.	.	.	.	.
=114	=114	=114	=114	=114	=114	=114	=114	=114	=114
4d\	.	16f#/LL	.	16f#/LL	.	4d\	-mi-	4ff#\	-mi-
.	.	16d/	.	16d/	.	.	.	.	.
.	.	16e/	.	16e/	.	.	.	.	.
.	.	16f#/JJ	.	16f#/JJ	.	.	.	.	.
4D/	.	16g/LL	.	16g/LL	.	4d\	-sit	4ff#\	-sit
.	.	16a/	.	16a/	.	.	.	.	.
.	.	16b/	.	16b/	.	.	.	.	.
.	.	16cc#/JJ	.	16cc#/JJ	.	.	.	.	.
4r	.	16dd\LL	.	16dd\LL	.	4r	.	4r	.
.	.	16ee\	.	16ee\	.	.	.	.	.
.	.	16ff#\	.	16ff#\	.	.	.	.	.
.	.	16gg\JJ	.	16gg\JJ	.	.	.	.	.
=115	=115	=115	=115	=115	=115	=115	=115	=115	=115
2.r	.	16aa\LL	.	16aa\LL	.	2.r	.	2.r	.
.	.	16dd\	.	16dd\	.	.	.	.	.
.	.	16ee\	.	16ee\	.	.	.	.	.
.	.	16ff#\JJ	.	16ff#\JJ	.	.	.	.	.
.	.	16gg\LL	.	16gg\LL	.	.	.	.	.
.	.	16aa\	.	16aa\	.	.	.	.	.
.	.	16bb\	.	16bb\	.	.	.	.	.
.	.	16ccc#\JJ	.	16ccc#\JJ	.	.	.	.	.
.	.	4ddd\	.	4ddd\	.	.	.	.	.
=116	=116	=116	=116	=116	=116	=116	=116	=116	=116
!	!	!LO:TX:a:t=adagio	!	!LO:TX:b:t=adagio.	!	!LO:TX:a:t=ada	!	!LO:TX:b:t=adagio	!
4G#X\	.	4dd\	.	4ff#\	.	4d\	in-	4ff#\	in-
4G#\	.	4dd\	.	4ff#\	.	2d\	-a-	2ff#\	-a-
4G#\	.	4dd\	.	4ff#\	.	.	.	.	.
!	!	!	!	!	!	!LO:LB:g=original	!	!	!
=117	=117	=117	=117	=117	=117	=117	=117	=117	=117
!	!	!	!	!	!	!	!	!LO:TX:a:t=problem: ozdobna kreska taktowa	!
2.A\	.	2.cc#\	.	2.ee\	.	2.c#\	-nes	2.ee\	-nes
!	!	!LO:TX:a:t=problem:ozdobna kreska taktowa	!	!LO:LB:g=original	!	!	!	!	!
!LO:LB:g=original	!	!LO:LB:g=original	!	!	!	!	!	!	!
=118:|!;	=118:|!	=118:|!	=118:|!	=118||	=118:|!	=118:|!;	=118:|!	=118:|!;;	=118:|!
*>E	*	*>E	*	*>E	*	*>E	*	*>E	*
*M2/4	*	*M2/4	*	*M2/4	*	*M2/4	*	*M2/4	*
!	!	!	!	!LO:TX:b:t=Suscepit	!	!	!	!	!
!LO:TX:b:t=Suscepit	!	!	!	!LO:TX:a:t=Allo:	!	!	!	!LO:TX:a:t=problem:brak "suscepit", nie ma wzmianki o tacet	!
8r	.	8aa\	.	8aa\	.	8r	.	8ryy	.
=119	=119	=119	=119	=119	=119	=119	=119	=119	=119
!LO:TX:a:t=Solo	!	!	!	!	!	!LO:N:vis=00	!	!	!
8D\L	.	(32ff#\LLL	.	(32ff#\LLL	.	0r	.	2ryy	.
.	.	32ee\JJ	.	32ee\JJ	.	.	.	.	.
.	.	8.dd\J)	.	8.dd\J)	.	.	.	.	.
8G\	.	.	.	.	.	.	.	.	.
8F#\	.	4ddd\	.	4ddd\	.	.	.	.	.
8E\J	.	.	.	.	.	.	.	.	.
=120	=120	=120	=120	=120	=120	=120	=120	=120	=120
8D\L	.	(32ff#\LLL	.	32ff#\LLL	.	.	.	2ryy	.
.	.	32ee\JJ	.	32ee\JJ	.	.	.	.	.
.	.	8.dd\J)	.	8.dd\J	.	.	.	.	.
8G\	.	.	.	.	.	.	.	.	.
8F#\	.	4ddd\	.	4ddd\	.	.	.	.	.
8E\J	.	.	.	.	.	.	.	.	.
=121	=121	=121	=121	=121	=121	=121	=121	=121	=121
!	!	!LO:TX:a:t=problem:mixed beam	!	!LO:TX:a:t=problem:mixed beam	!	!	!	!	!
8D\L	.	8ddd\L	.	8ddd\L	.	.	.	2ryy	.
8F#\	.	8f#/	.	8f#/	.	.	.	.	.
8E\	.	8e/	.	8e/	.	.	.	.	.
8D\J	.	8d/J	.	8d/J	.	.	.	.	.
=122	=122	=122	=122	=122	=122	=122	=122	=122	=122
!LO:TX:a:t=problem:mixed beam	!	!	!	!	!	!	!	!	!
8A\L	.	8a/L	.	8a/L	.	.	.	2ryy	.
8AA/	.	8A/J	.	8A/J	.	.	.	.	.
8C#/	.	4r	.	4r	.	.	.	.	.
8BB/J	.	.	.	.	.	.	.	.	.
=123	=123	=123	=123	=123	=123	=123	=123	=123	=123
*tremolo	*	*	*	*	*	*	*	*	*
!	!	!	!	!	!	!LO:N:vis=00	!	!	!
8AA/L	.	8A/L	.	(16A/LL	.	0r	.	2ryy	.
.	.	.	.	16c#/)	.	.	.	.	.
8AA/	.	(16A/L	.	(16c#/	.	.	.	.	.
.	.	16c#/JJ)	.	16e/JJ)	.	.	.	.	.
8AA/	.	(16c#/LL	.	(16e/LL	.	.	.	.	.
.	.	16e/)	.	16a/)	.	.	.	.	.
8AA/J	.	(16e/	.	(16a/	.	.	.	.	.
.	.	16a/JJ)	.	16cc#/JJ)	.	.	.	.	.
=124	=124	=124	=124	=124	=124	=124	=124	=124	=124
8AA/L	.	(16a\LL	.	(16cc#\LL	.	.	.	2ryy	.
.	.	16cc#\)	.	16ee\)	.	.	.	.	.
8AA/	.	(16cc#\	.	(16ee\	.	.	.	.	.
.	.	16ff#\JJ)	.	16aa\JJ)	.	.	.	.	.
.	.	8qqff#/	.	8qqaa/	.	.	.	.	.
8AA/	.	4ee\	.	4gg\	.	.	.	.	.
8AA/J	.	.	.	.	.	.	.	.	.
=125	=125	=125	=125	=125	=125	=125	=125	=125	=125
8AA/L	.	8A/L	.	(16A/LL	.	.	.	2ryy	.
.	.	.	.	16c#/)	.	.	.	.	.
8AA/	.	(16A/L	.	(16c#/	.	.	.	.	.
.	.	16c#/JJ)	.	16e/JJ)	.	.	.	.	.
8AA/	.	(16c#/LL	.	(16e/LL	.	.	.	.	.
.	.	16e/)	.	16a/)	.	.	.	.	.
8AA/J	.	(16e/	.	(16a/	.	.	.	.	.
.	.	16a/JJ)	.	16cc#/JJ)	.	.	.	.	.
*Xtremolo	*	*	*	*	*	*	*	*	*
=126	=126	=126	=126	=126	=126	=126	=126	=126	=126
8AA/L	.	(16a\LL	.	(16cc#\LL	.	.	.	2ryy	.
.	.	16cc#\)	.	16ee\)	.	.	.	.	.
8AA/	.	(16cc#\	.	(16ee\	.	.	.	.	.
.	.	16ee\JJ)	.	16gg\JJ)	.	.	.	.	.
.	.	8qqee/	.	8qqgg/	.	.	.	.	.
8D/	.	4dd\	.	4ff#\	.	.	.	.	.
8DD/J	.	.	.	.	.	.	.	.	.
=127	=127	=127	=127	=127	=127	=127	=127	=127	=127
!	!	!	!	!	!	!LO:N:vis=00	!	!	!
16D\LL	.	2dd\	.	2ff#\	.	0r	.	2ryy	.
16D\	.	.	.	.	.	.	.	.	.
16F#\	.	.	.	.	.	.	.	.	.
16F#\JJ	.	.	.	.	.	.	.	.	.
16A\LL	.	.	.	.	.	.	.	.	.
16A\	.	.	.	.	.	.	.	.	.
16d\	.	.	.	.	.	.	.	.	.
16d\JJ	.	.	.	.	.	.	.	.	.
!	!	!LO:LB:g=original	!	!	!	!	!	!	!
=128	=128	=128	=128	=128	=128	=128	=128	=128	=128
4D\	.	8dd\L	.	8ff#\L	.	.	.	2ryy	.
.	.	16cc#\L	.	16ee\L	.	.	.	.	.
.	.	16b\JJ	.	16dd\JJ	.	.	.	.	.
8r	.	16a/LL	.	16cc#\LL	.	.	.	.	.
.	.	16g/	.	16b\	.	.	.	.	.
8AA/	.	16f#/	.	16a\	.	.	.	.	.
.	.	16e/JJ	.	16g\JJ	.	.	.	.	.
!LO:LB:g=original	!	!	!	!LO:LB:g=original	!	!	!	!	!
=129	=129	=129	=129	=129	=129	=129	=129	=129	=129
!	!	!LO:TX:a:t=problem:mixed beam	!	!LO:TX:a:t=problem:mixed beam	!	!	!	!	!
8D\L	.	8d/L	.	8f#/L	.	.	.	2ryy	.
8G\	.	8dd\	.	8bb\J	.	.	.	.	.
8F#\	.	8dd\	.	16aa\LL	.	.	.	.	.
.	.	.	.	16gg\	.	.	.	.	.
8G\J	.	8b\J	.	16ff#\	.	.	.	.	.
.	.	.	.	16ee\JJ	.	.	.	.	.
=130	=130	=130	=130	=130	=130	=130	=130	=130	=130
!LO:TX:a:t=problem:mixed beam	!	!	!	!	!	!	!	!	!
8A\L	.	4f#/	.	4dd\	.	.	.	2ryy	.
8A\	.	.	.	.	.	.	.	.	.
8AA/	.	4cc#\	.	4ee\	.	.	.	.	.
8AA/J	.	.	.	.	.	.	.	.	.
=131	=131	=131	=131	=131	=131	=131	=131	=131	=131
!	!LO:DY:t=p:	!	!LO:DY:t=pia.	!	!LO:DY:t=pia	!	!	!	!
!	!LO:DY:a	!	!LO:DY:a	!	!LO:DY:a	!LO:N:vis=00	!	!	!
16D\LL	p	2dd\	p	2ff#\	p	0r	.	2ryy	.
16D\	.	.	.	.	.	.	.	.	.
16F#\	.	.	.	.	.	.	.	.	.
16F#\JJ	.	.	.	.	.	.	.	.	.
16A\LL	.	.	.	.	.	.	.	.	.
16A\	.	.	.	.	.	.	.	.	.
16d\	.	.	.	.	.	.	.	.	.
16d\JJ	.	.	.	.	.	.	.	.	.
=132	=132	=132	=132	=132	=132	=132	=132	=132	=132
4D\	.	8dd\L	.	8ff#\L	.	.	.	2ryy	.
.	.	16cc#\L	.	16ee\L	.	.	.	.	.
.	.	16b\JJ	.	16dd\JJ	.	.	.	.	.
8r	.	16a/LL	.	16cc#\LL	.	.	.	.	.
.	.	16g/	.	16b\	.	.	.	.	.
8AA/	.	16f#/	.	16a\	.	.	.	.	.
.	.	16e/JJ	.	16g\JJ	.	.	.	.	.
=133	=133	=133	=133	=133	=133	=133	=133	=133	=133
!	!	!LO:TX:a:t=problem:mixed beam	!	!LO:TX:a:t=problem:mixed beam	!	!	!	!	!
8D\L	.	8d/L	.	8f#/L	.	.	.	2ryy	.
8G\	.	8dd\	.	8bb\J	.	.	.	.	.
8F#\	.	8dd\	.	16aa\LL	.	.	.	.	.
.	.	.	.	16gg\	.	.	.	.	.
8G\J	.	8b\J	.	16ff#\	.	.	.	.	.
.	.	.	.	16ee\JJ	.	.	.	.	.
=134	=134	=134	=134	=134	=134	=134	=134	=134	=134
!LO:TX:a:t=problem:mixed beam	!	!	!	!	!	!	!	!	!
8A\L	.	4f#/	.	4dd\	.	.	.	2ryy	.
8A\	.	.	.	.	.	.	.	.	.
8AA/	.	4cc#\	.	4eeT\	.	.	.	.	.
8AA/J	.	.	.	.	.	.	.	.	.
=135	=135	=135	=135	=135	=135	=135	=135	=135	=135
!	!LO:DY:t=for	!	!LO:DY:t=for	!	!LO:DY:t=for.	!	!	!	!
!	!LO:DY:a	!LO:TX:a:t=problem:mixed beam	!LO:DY:a	!LO:TX:a:t=problem:mixed beam	!LO:DY:a	!LO:N:vis=00	!	!	!
8D\L	f	8dd\L	f	8dd\L	f	0r	.	2ryy	.
8F#\	.	16f#/L	.	16f#/L	.	.	.	.	.
.	.	16f#/JJ	.	16f#/JJ	.	.	.	.	.
8G\	.	16g/LL	.	16g/LL	.	.	.	.	.
.	.	16g/	.	16g/	.	.	.	.	.
8E\J	.	16e/	.	16e/	.	.	.	.	.
.	.	16e/JJ	.	16e/JJ	.	.	.	.	.
=136	=136	=136	=136	=136	=136	=136	=136	=136	=136
8A\L	.	16a/LL	.	16a/LL	.	.	.	2ryy	.
.	.	16a/	.	16a/	.	.	.	.	.
8F#\	.	16f#/	.	16f#/	.	.	.	.	.
.	.	16f#/JJ	.	16f#/JJ	.	.	.	.	.
8B\	.	16b\LL	.	16b\LL	.	.	.	.	.
.	.	16b\	.	16b\	.	.	.	.	.
8G\J	.	16g\	.	16g\	.	.	.	.	.
.	.	16g\JJ	.	16g\JJ	.	.	.	.	.
=137	=137	=137	=137	=137	=137	=137	=137	=137	=137
8c#\L	.	16cc#\LL	.	16cc#\LL	.	.	.	2ryy	.
.	.	16cc#\	.	16cc#\	.	.	.	.	.
8A\	.	16a\	.	16a\	.	.	.	.	.
.	.	16a\JJ	.	16a\JJ	.	.	.	.	.
!	!	!	!	!LO:TX:a:t=problem:mixed beam	!	!	!	!	!
8d\	.	16dd\LL	.	16dd\LL	.	.	.	.	.
.	.	16dd\	.	16dd\	.	.	.	.	.
8F#\J	.	16f#\	.	16f#/	.	.	.	.	.
.	.	16f#\JJ	.	16f#/JJ	.	.	.	.	.
!	!	!LO:LB:g=original	!	!	!	!	!	!	!
=138	=138	=138	=138	=138	=138	=138	=138	=138	=138
8.G\L	.	8.gT/L	.	8.gT/L	.	.	.	2ryy	.
32F#\LL	.	32f#/LL	.	32f#/LL	.	.	.	.	.
32G\JJJ	.	32g/JJJ	.	32g/JJJ	.	.	.	.	.
!LO:TX:a:t=problem:mixed beam	!	!	!	!	!	!	!	!	!
8A\L	.	8a/L	.	8a/L	.	.	.	.	.
8AA/J	.	8A/J	.	8A/J	.	.	.	.	.
!LO:LB:g=original	!	!	!	!LO:LB:g=original	!	!	!	!	!
=139	=139	=139	=139	=139	=139	=139	=139	=139	=139
!	!	!	!	!	!LO:DY:t=pia	!	!	!	!
!	!	!	!	!	!LO:DY:a	!	!	!	!
4D\	.	4d;;/	.	4d/	p	4r	.	2ryy	.
4r	.	4r	.	8r	.	8r	.	.	.
.	.	.	.	8aa\	.	8A\	Sus-	.	.
=140	=140	=140	=140	=140	=140	=140	=140	=140	=140
!	!LO:DY:t=pianis	!	!	!	!	!	!	!	!
!	!LO:DY:a	!	!	!	!	!	!	!	!
8D\L	pp	8f#/L	.	(32ff#\LLL	.	32F#/LLL	-ce-	2ryy	.
.	.	.	.	32ee\JJ	.	32E/JJ	.	.	.
.	.	.	.	8.dd\J)	.	8.D/J	.	.	.
8G\	.	8b/	.	.	.	.	.	.	.
8F#\	.	8a/	.	4ddd\	.	4d\	-pit	.	.
8E\J	.	8g/J	.	.	.	.	.	.	.
=141	=141	=141	=141	=141	=141	=141	=141	=141	=141
8D\L	.	8f#/L	.	(32ff#\LLL	.	16F#/LL	Is-	2ryy	.
.	.	.	.	32ee\JJ	.	.	.	.	.
.	.	.	.	8.dd\J)	.	16E/JJ	.	.	.
8G\	.	8b/	.	.	.	8D/	-ra-	.	.
8F#\	.	8a/	.	4ddd\	.	4d\	-el	.	.
8E\J	.	8g/J	.	.	.	.	.	.	.
=142	=142	=142	=142	=142	=142	=142	=142	=142	=142
!	!	!	!	!LO:TX:a:t=problem:mixed beam	!	!LO:TX:a:t=problem:mixed beam	!	!	!
8D\L	.	8f#/L	.	8ddd\L	.	8d\L	Pu-	2ryy	.
8F#\	.	8f#/	.	8f#/	.	8F#/J	.	.	.
8E\	.	8e/	.	8e/	.	8E/	-e-	.	.
8D\J	.	8d/J	.	8d/J	.	8D/	-rum	.	.
=143	=143	=143	=143	=143	=143	=143	=143	=143	=143
!LO:TX:a:t=problem:mixed beam	!	!	!	!	!	!	!	!	!
8A\L	.	8a/L	.	8a/L	.	8A\	Su-	2ryy	.
8AA/	.	8A/J	.	8A/J	.	8A\	-um	.	.
8C#/	.	4r	.	4r	.	4r	.	.	.
8BB/J	.	.	.	.	.	.	.	.	.
=144	=144	=144	=144	=144	=144	=144	=144	=144	=144
*tremolo	*	*	*	*	*	*	*	*	*
8AA/L	.	8A/L	.	(16A/LL	.	4e\	re-	2ryy	.
.	.	.	.	16c#/)	.	.	.	.	.
8AA/	.	(16A/L	.	(16c#/	.	.	.	.	.
.	.	16c#/JJ)	.	16e/JJ)	.	.	.	.	.
8AA/	.	(16c#/LL	.	(16e/LL	.	4e\	-cor-	.	.
.	.	16e/)	.	16a/)	.	.	.	.	.
8AA/J	.	(16e/	.	(16a/	.	.	.	.	.
.	.	16a/JJ)	.	16cc#/JJ)	.	.	.	.	.
=145	=145	=145	=145	=145	=145	=145	=145	=145	=145
8AA/L	.	(16a\LL	.	(16cc#\LL	.	8e\L	-da-	2ryy	.
.	.	16cc#\)	.	16ee\)	.	.	.	.	.
8AA/	.	(16cc#\	.	(16ee\	.	8a\J	.	.	.
.	.	16ff#\JJ)	.	16aa\JJ)	.	.	.	.	.
.	.	8qqff#/	.	8qqaa/	.	.	.	.	.
!	!	!	!	!	!	!LO:LB:g=original	!	!	!
8AA/	.	4ee\	.	4gg\	.	4g\	-tus	.	.
8AA/J	.	.	.	.	.	.	.	.	.
=146	=146	=146	=146	=146	=146	=146	=146	=146	=146
8AA/L	.	8A/L	.	(16A/LL	.	4e\	re-	2ryy	.
.	.	.	.	16c#/)	.	.	.	.	.
8AA/	.	(16A/L	.	(16c#/	.	.	.	.	.
.	.	16c#/JJ)	.	16e/JJ)	.	.	.	.	.
8AA/	.	(16c#/LL	.	(16e/LL	.	4e\	-cor-	.	.
.	.	16e/)	.	16a/)	.	.	.	.	.
8AA/J	.	(16e/	.	(16a/	.	.	.	.	.
.	.	16a/JJ)	.	16cc#/JJ)	.	.	.	.	.
*Xtremolo	*	*	*	*	*	*	*	*	*
=147	=147	=147	=147	=147	=147	=147	=147	=147	=147
8AA/L	.	(16a\LL	.	(16cc#\LL	.	8e\L	-da-	2ryy	.
.	.	16cc#\)	.	16ee\)	.	.	.	.	.
8AA/	.	(16cc#\	.	(16ee\	.	8g\J	.	.	.
.	.	16ee\JJ)	.	16gg\JJ)	.	.	.	.	.
.	.	8qqee/	.	8qqgg/	.	.	.	.	.
8D/	.	4dd\	.	4ff#\	.	8f#\	-tus	.	.
8DD/J	.	.	.	.	.	8f#\	mi-	.	.
!	!	!LO:LB:g=original	!	!	!	!	!	!	!
=148	=148	=148	=148	=148	=148	=148	=148	=148	=148
4D\	.	8.ddT\L	.	8.ff#t\L	.	8f#\	-se-	2ryy	.
.	.	.	.	.	.	16e\LL	-ri-	.	.
.	.	32cc#\LL	.	32ee\LL	.	16f#\JJ	.	.	.
.	.	32dd\JJJ	.	32ff#\JJJ	.	.	.	.	.
8r	.	8ee\L	.	8gg\L	.	8g\	-cor-	.	.
8G\	.	8dd\J	.	8ff#\J	.	16f#\	-di-	.	.
.	.	.	.	.	.	16f#\	-a	.	.
!	!	!	!	!LO:LB:g=original	!	!	!	!	!
=149	=149	=149	=149	=149	=149	=149	=149	=149	=149
!LO:TX:a:t=problem:mixed beam	!	!	!	!	!	!	!	!	!
8A\L	.	8dd\L	.	8ff#\L	.	8f#\L	su-	2ryy	.
8AA/	.	8cc#\	.	8ee\	.	8e\J	-ae	.	.
8C#/	.	8a\	.	8ee\	.	8r	.	.	.
8C#/J	.	8a\J	.	8ee\J	.	8e\	mi-	.	.
!LO:LB:g=original	!	!	!	!	!	!	!	!	!
=150	=150	=150	=150	=150	=150	=150	=150	=150	=150
*tremolo	*	*	*	*	*	*	*	*	*
8D\L	.	8a\L	.	8ff#\L	.	16f#\LL	-se-	2ryy	.
.	.	.	.	.	.	16e\JJ	.	.	.
8D\	.	8a\	.	8ff#\	.	4d\	.	.	.
8D\	.	8a\	.	8ff#\	.	.	.	.	.
8D\J	.	8a\J	.	8ff#\J	.	8c#\	-ri-	.	.
!	!	!	!	!	!	!LO:LB:g=original	!	!	!
=151	=151	=151	=151	=151	=151	=151	=151	=151	=151
8D\L	.	8a\L	.	8ff#\L	.	16B\LL	-cor-	2ryy	.
.	.	.	.	.	.	16c#\	.	.	.
8D\	.	8a\	.	8ff#\	.	16d\	.	.	.
.	.	.	.	.	.	16e\JJ	.	.	.
8D\	.	8a\	.	8ff#\	.	16f#\LL	.	.	.
.	.	.	.	.	.	16g#X\	.	.	.
8D\J	.	8a\J	.	8ff#\J	.	16a\	.	.	.
.	.	.	.	.	.	16b\JJ	.	.	.
=152	=152	=152	=152	=152	=152	=152	=152	=152	=152
8C#/L	.	8a\L	.	8ee\L	.	16e\LL	.	2ryy	.
.	.	.	.	.	.	16d\JJ	.	.	.
8C#/	.	8a\	.	8ee\	.	4c#\	.	.	.
8C#/	.	8a\	.	8ee\	.	.	.	.	.
8C#/J	.	8a\J	.	8ee\J	.	8B\	.	.	.
=153	=153	=153	=153	=153	=153	=153	=153	=153	=153
8C#/L	.	8a\L	.	8ee\L	.	16A\LL	.	2ryy	.
.	.	.	.	.	.	16B\	.	.	.
8C#/	.	8a\	.	8ee\	.	16c#\	.	.	.
.	.	.	.	.	.	16d\JJ	.	.	.
8C#/	.	8a\	.	8ee\	.	16e\LL	.	.	.
.	.	.	.	.	.	16f#\	.	.	.
8C#/J	.	8a\J	.	8ee\J	.	16g\	.	.	.
.	.	.	.	.	.	16a\JJ	.	.	.
=154	=154	=154	=154	=154	=154	=154	=154	=154	=154
8BB/L	.	8a\L	.	8dd\L	.	16d\LL	.	2ryy	.
.	.	.	.	.	.	16c#\JJ	.	.	.
8BB/	.	8a\	.	8dd\	.	4B\	.	.	.
8BB/	.	8a\	.	8dd\	.	.	.	.	.
8BB/J	.	8a\J	.	8dd\J	.	8A\	.	.	.
*Xtremolo	*	*	*	*	*	*	*	*	*
=155	=155	=155	=155	=155	=155	=155	=155	=155	=155
!	!	!	!	!	!	!LO:TX:a:t=problem:mixed beam	!	!	!
4E\	.	8b\L	.	8dd\L	.	8G#X/L	.	2ryy	.
.	.	8dd\	.	8ff#\	.	8f#\J	.	.	.
8r	.	8cc#\	.	8ee\	.	8e\	-di-	.	.
8E\	.	8b\J	.	8dd\J	.	8d\	-a	.	.
=156	=156	=156	=156	=156	=156	=156	=156	=156	=156
!LO:TX:a:t=problem:mixed beam	!	!	!	!	!	!	!	!	!
8A/\L	.	8b\L	.	8dd\L	.	8d\	su-	2ryy	.
8AA/	.	8a\	.	8cc#\	.	8c#\	-ae	.	.
8C#/	.	8a\	.	8ee\	.	4e\	mi-	.	.
8C#/J	.	8a\J	.	8ee\J	.	.	.	.	.
=157	=157	=157	=157	=157	=157	=157	=157	=157	=157
4D\	.	4a/	.	4ff#\	.	4f#\	-se-	2ryy	.
!LO:TX:a:t=d.	!	!	!	!	!	!	!	!	!
4D\	.	4b\	.	4gg#X\	.	4g#X\	-ri-	.	.
=158	=158	=158	=158	=158	=158	=158	=158	=158	=158
8C#/L	.	4cc#\	.	4aa\	.	8a\L	-cor-	2ryy	.
8D/	.	.	.	.	.	8f#\J	.	.	.
!	!	!	!	!	!	!LO:LB:g=original	!	!	!
8C#/	.	4r	.	4r	.	8e\	-di-	.	.
8D/J	.	.	.	.	.	8d\	-a	.	.
=159	=159	=159	=159	=159	=159	=159	=159	=159	=159
!LO:TX:a:t=problem:mixed beam	!	!	!	!	!	!	!	!	!
8E\L	.	2r	.	2r	.	4c#\	Su-	2ryy	.
8E\	.	.	.	.	.	.	.	.	.
8EE/	.	.	.	.	.	4B\	.	.	.
8EE/J	.	.	.	.	.	.	.	.	.
=160	=160	=160	=160	=160	=160	=160	=160	=160	=160
!	!	!	!LO:DY:T=for.	!	!LO:DY:t=for	!	!	!	!
!	!	!	!LO:DY:a	!	!LO:DY:a	!	!	!	!
16AA/LL	.	2aa\	f	[2ccc#\	f	4A\	-ae	2ryy	.
16AA/	.	.	.	.	.	.	.	.	.
16C#/	.	.	.	.	.	.	.	.	.
16C#/JJ	.	.	.	.	.	.	.	.	.
16E\LL	.	.	.	.	.	4r	.	.	.
16E\	.	.	.	.	.	.	.	.	.
16A\	.	.	.	.	.	.	.	.	.
16A\JJ	.	.	.	.	.	.	.	.	.
!LO:PB:g=original	!	!	!	!	!	!	!	!	!
=161	=161	=161	=161	=161	=161	=161	=161	=161	=161
!	!	!	!	!	!	!LO:N:vis=00	!	!	!
4AA/	.	8aa\L	.	8ccc#\L]	.	0r	.	2ryy	.
.	.	16gg#X\L	.	16bb\L	.	.	.	.	.
.	.	16ff#\JJ	.	16aa\JJ	.	.	.	.	.
8r	.	16ee\LL	.	16gg#X\LL	.	.	.	.	.
.	.	16dd\	.	16ff#\	.	.	.	.	.
8E\	.	16cc#\	.	16ee\	.	.	.	.	.
.	.	16b\JJ	.	16dd\JJ	.	.	.	.	.
!	!	!LO:LB:g=original	!	!	!	!	!	!	!
=162	=162	=162	=162	=162	=162	=162	=162	=162	=162
8AA/L	.	8a/L	.	8cc#\L	.	.	.	2ryy	.
8D/	.	8a/	.	8ff#\J	.	.	.	.	.
8C#/	.	8a/	.	16ee\LL	.	.	.	.	.
.	.	.	.	16dd\	.	.	.	.	.
8D/J	.	8f#/J	.	16cc#\	.	.	.	.	.
.	.	.	.	16b\JJ	.	.	.	.	.
!	!	!	!	!LO:LB:g=original	!	!	!	!	!
=163	=163	=163	=163	=163	=163	=163	=163	=163	=163
!LO:TX:a:t=problem:mixed beam	!	!	!	!	!	!	!	!	!
8E\L	.	4c#/	.	4a/	.	.	.	2ryy	.
8E\	.	.	.	.	.	.	.	.	.
8EE/	.	4g#X/	.	4bT/	.	.	.	.	.
8EE/J	.	.	.	.	.	.	.	.	.
=164	=164	=164	=164	=164	=164	=164	=164	=164	=164
!	!LO:DY:t=piano	!	!	!	!	!	!	!	!
!	!LO:DY:a	!	!LO:DY:t=pia	!	!	!	!	!	!
16AA/LL	p	2aa\	p	2ccc#\	.	.	.	2ryy	.
16AA/	.	.	.	.	.	.	.	.	.
16C#/	.	.	.	.	.	.	.	.	.
16C#/JJ	.	.	.	.	.	.	.	.	.
16E\LL	.	.	.	.	.	.	.	.	.
16E\	.	.	.	.	.	.	.	.	.
16A\	.	.	.	.	.	.	.	.	.
16A\JJ	.	.	.	.	.	.	.	.	.
=165	=165	=165	=165	=165	=165	=165	=165	=165	=165
!	!	!	!	!	!	!LO:N:vis=00	!	!	!
4AA/	.	8aa\L	.	8ccc#\L	.	0r	.	2ryy	.
.	.	16gg#X\L	.	16bb\L	.	.	.	.	.
.	.	16ff#\JJ	.	16aa\JJ	.	.	.	.	.
8r	.	16ee\LL	.	16gg#X\LL	.	.	.	.	.
.	.	16dd\	.	16ff#\	.	.	.	.	.
8E\	.	16cc#\	.	16ee\	.	.	.	.	.
.	.	16b\JJ	.	16dd\JJ	.	.	.	.	.
=166	=166	=166	=166	=166	=166	=166	=166	=166	=166
8AA/L	.	8a/L	.	8cc#\L	.	.	.	2ryy	.
8D/	.	8a/	.	8ff#\J	.	.	.	.	.
8C#/	.	8a/	.	16ee\LL	.	.	.	.	.
.	.	.	.	16dd\	.	.	.	.	.
8D/J	.	8f#/J	.	16cc#\	.	.	.	.	.
.	.	.	.	16b\JJ	.	.	.	.	.
=167	=167	=167	=167	=167	=167	=167	=167	=167	=167
!LO:TX:a:t=problem:mixed beam	!	!	!	!	!	!	!	!	!
8E\L	.	4c#/	.	4a/	.	.	.	2ryy	.
8E\	.	.	.	.	.	.	.	.	.
8EE/	.	4g#X/	.	4bT/	.	.	.	.	.
8EE/J	.	.	.	.	.	.	.	.	.
=168	=168	=168	=168	=168	=168	=168	=168	=168	=168
!	!	!	!LO:DY:t=for	!	!	!	!	!	!
!	!	!	!LO:DY:a	!	!	!	!	!	!
8AA/L	.	8a/L	f	8a/L	.	.	.	2ryy	.
8C#/	.	16c#/L	.	16c#/L	.	.	.	.	.
.	.	16c#/JJ	.	16c#/JJ	.	.	.	.	.
8D/	.	16d/LL	.	16d/LL	.	.	.	.	.
.	.	16d/	.	16d/	.	.	.	.	.
8BB/J	.	16B/	.	16B/	.	.	.	.	.
.	.	16B/JJ	.	16B/JJ	.	.	.	.	.
=169	=169	=169	=169	=169	=169	=169	=169	=169	=169
!	!	!	!	!	!	!LO:N:vis=0	!	!	!
8E\L	.	16e/LL	.	16e/LL	.	1r	.	2ryy	.
.	.	16e/	.	16e/	.	.	.	.	.
8C#\	.	16c#/	.	16c#/	.	.	.	.	.
.	.	16c#/JJ	.	16c#/JJ	.	.	.	.	.
8F#\	.	16f#/LL	.	16f#/LL	.	.	.	.	.
.	.	16f#/	.	16f#/	.	.	.	.	.
8D\J	.	16d/	.	16d/	.	.	.	.	.
.	.	16d/JJ	.	16d/JJ	.	.	.	.	.
=170	=170	=170	=170	=170	=170	=170	=170	=170	=170
8G#X\L	.	16g#X/LL	.	16g#X/LL	.	.	.	2ryy	.
.	.	16g#/	.	16g#/	.	.	.	.	.
8E\	.	16e/	.	16e/	.	.	.	.	.
.	.	16e/JJ	.	16e/JJ	.	.	.	.	.
8A\	.	16a/LL	.	16a/LL	.	.	.	.	.
.	.	16a/	.	16a/	.	.	.	.	.
8C#\J	.	16c#/	.	16c#/	.	.	.	.	.
.	.	16c#/JJ	.	16c#/JJ	.	.	.	.	.
=171	=171	=171	=171	=171	=171	=171	=171	=171	=171
8.D\L	.	8.dT/L	.	8.dT/L	.	2r	.	2ryy	.
32C#\LL	.	32c#/LL	.	32c#/LL	.	.	.	.	.
32D\JJJ	.	32d/JJJ	.	32d/JJJ	.	.	.	.	.
8E\L	.	8e/L	.	8e/L	.	.	.	.	.
8E\J	.	8e/J	.	8e/J	.	.	.	.	.
!	!	!LO:LB:g=original	!	!	!	!	!	!	!
=172	=172	=172	=172	=172	=172	=172	=172	=172	=172
!	!	!	!	!	!LO:DY:t=pia	!	!	!	!
!	!	!	!	!	!LO:DY:a	!	!	!	!
4AA/	.	4A/	.	4A/	p	4r	.	2ryy	.
4r	.	4r	.	8r	.	8r	.	.	.
.	.	.	.	8ee\	.	8e\	Si-	.	.
!LO:LB:g=original	!	!	!	!LO:LB:g=original	!	!	!	!	!
=173	=173	=173	=173	=173	=173	=173	=173	=173	=173
!	!	!	!LO:DY:t=pia	!	!	!	!	!	!
!	!LO:DY:a	!	!LO:DY:a	!	!	!	!	!	!
8AA/L	p	8cc#\L	p	(32cc#\LLL	.	(32c#\LLL	-cut	2ryy	.
.	.	.	.	32b\JJ	.	32B\JJ)	.	.	.
.	.	.	.	8.a\J)	.	8.A\J	.	.	.
8D/	.	8ff#\	.	.	.	.	.	.	.
8C#/	.	8ee\	.	4aa\	.	4a\	lo-	.	.
8BB/J	.	8dd\J	.	.	.	.	.	.	.
=174	=174	=174	=174	=174	=174	=174	=174	=174	=174
8AA/L	.	8cc#\L	.	(32cc#\LLL	.	16c#\LL	-cu-	2ryy	.
.	.	.	.	32b\JJ	.	.	.	.	.
.	.	.	.	8.a\J)	.	16B\JJ	.	.	.
8D/	.	8ff#\	.	.	.	8A/	-tus	.	.
8C#/	.	8ee\	.	4aa\	.	4a\	est	.	.
8BB/J	.	8dd\J	.	.	.	.	.	.	.
=175	=175	=175	=175	=175	=175	=175	=175	=175	=175
8AA/L	.	8cc#\L	.	8aa\L	.	8a\	ad	2ryy	.
8C#/	.	8cc#\	.	8cc#\	.	8c#\	Pa-	.	.
8BB/	.	8b\	.	8b\	.	8B\	-tres	.	.
8AA/J	.	8a\J	.	8a\J	.	8A\	nos-	.	.
=176	=176	=176	=176	=176	=176	=176	=176	=176	=176
!LO:TX:a:t=problem:mixed beam	!	!LO:TX:a:t=problem:mixed beam	!	!LO:TX:a:t=problem:mixed beam	!	!	!	!	!
8E\L	.	8ee\L	.	8ee\L	.	8e\	-tros	2ryy	.
8EE/	.	8e/J	.	8e/J	.	8E/	.	.	.
8G#X\	.	4r	.	4r	.	4r	.	.	.
8F#\J	.	.	.	.	.	.	.	.	.
!	!	!	!	!	!	!LO:LB:g=original	!	!	!
=177	=177	=177	=177	=177	=177	=177	=177	=177	=177
*tremolo	*	*	*	*	*	*	*	*	*
8E\L	.	8e/L	.	(16e/LL	.	[2B\	A-	2ryy	.
.	.	.	.	16g#X/)	.	.	.	.	.
8E\	.	(16e/L	.	(16g#/	.	.	.	.	.
.	.	16g#X/JJ)	.	16b/JJ)	.	.	.	.	.
8E\	.	(16g#\LL	.	(16b\LL	.	.	.	.	.
.	.	16b\)	.	16ee\)	.	.	.	.	.
8E\J	.	(16b\	.	(16ee\	.	.	.	.	.
.	.	16ee\JJ)	.	16gg#X\JJ)	.	.	.	.	.
=178	=178	=178	=178	=178	=178	=178	=178	=178	=178
8E\L	.	16ee\LL	.	(16gg#X\LL	.	8B\]	.	2ryy	.
.	.	16gg#X\	.	16bb\)	.	.	.	.	.
8E\	.	16gg#\	.	(16bb\	.	8e\	-bra-	.	.
.	.	16cc#\JJ	.	16ee\JJ)	.	.	.	.	.
.	.	8qqcc#/	.	8qqee/	.	.	.	.	.
8E\	.	4b\	.	4dd\	.	4d\	-ham	.	.
8E\J	.	.	.	.	.	.	.	.	.
=179	=179	=179	=179	=179	=179	=179	=179	=179	=179
8E\L	.	8e/L	.	(16e/LL	.	2B\	A-	2ryy	.
.	.	.	.	16g#X/)	.	.	.	.	.
8E\	.	(16e/L	.	(16g#/	.	.	.	.	.
.	.	16g#X/JJ)	.	16b/JJ)	.	.	.	.	.
8E\	.	(16g#\LL	.	(16b\LL	.	.	.	.	.
.	.	16b\)	.	16ee\)	.	.	.	.	.
8E\J	.	(16b\	.	(16ee\	.	.	.	.	.
.	.	16ee\JJ)	.	16gg#X\JJ)	.	.	.	.	.
*Xtremolo	*	*	*	*	*	*	*	*	*
=180	=180	=180	=180	=180	=180	=180	=180	=180	=180
!LO:TX:a:t=problem:mixed beam	!	!	!	!	!	!	!	!	!
8E\L	.	(16ee\LL	.	(16gg#X\LL	.	8B\	.	2ryy	.
.	.	16gg#X\)	.	16bb\)	.	.	.	.	.
8E\	.	(16gg#\	.	(16bb\	.	8d\	-bra-	.	.
.	.	16b\JJ)	.	16dd\JJ)	.	.	.	.	.
.	.	8qqb/	.	8qqdd/	.	.	.	.	.
8A\	.	4a/	.	4cc#\	.	4c#\	-ham	.	.
8AA/J	.	.	.	.	.	.	.	.	.
=181	=181	=181	=181	=181	=181	=181	=181	=181	=181
4AA/	.	8a/	.	8cc#\	.	16c#\LL	et	2ryy	.
.	.	.	.	.	.	16A\	.	.	.
.	.	4a/	.	4ee\	.	16B\	.	.	.
.	.	.	.	.	.	16c#\JJ	.	.	.
8C#/L	.	.	.	.	.	16d\LL	.	.	.
.	.	.	.	.	.	16e\	.	.	.
8BB/J	.	8g#X/	.	8dd\	.	16f#\	.	.	.
.	.	.	.	.	.	16g#X\JJ	.	.	.
!	!	!LO:LB:g=original	!	!	!	!	!	!	!
=182	=182	=182	=182	=182	=182	=182	=182	=182	=182
!LO:TX:a:t=problem:mixed beam	!	!	!	!	!	!	!	!	!
8AA/L	.	8a/	.	8cc#\	.	8a\	Se-	2ryy	.
!	!	!	!	!	!	!LO:N:vis=8	!	!	!
8B\	.	4b/	.	4dd\	.	4d\	.	.	.
8F#\	.	.	.	.	.	.	.	.	.
8G#X\J	.	16a/LL	.	16cc#\LL	.	16c#\	-mi-	.	.
.	.	16g#X/JJ	.	16b\JJ	.	16B\	-ni	.	.
!	!	!	!	!LO:LB:g=original	!	!	!	!	!
=183	=183	=183	=183	=183	=183	=183	=183	=183	=183
!	!	!LO:TX:a:t=problem: brak t. 169	!	!	!	!	!	!	!
4A\	.	2ryy	.	8cc#\	.	16c#\LL	e-	2ryy	.
.	.	.	.	.	.	16A\	.	.	.
.	.	.	.	4ee\	.	16B\	.	.	.
.	.	.	.	.	.	16c#\JJ	.	.	.
8C#/L	.	.	.	.	.	16d\LL	.	.	.
.	.	.	.	.	.	16e\	.	.	.
8BB/J	.	.	.	8dd\	.	16f#\	.	.	.
.	.	.	.	.	.	16g#X\JJ	.	.	.
=184	=184	=184	=184	=184	=184	=184	=184	=184	=184
8AA/L	.	8c#/L	.	16cc#\LL	.	8a\L	-jus	2ryy	.
.	.	.	.	16aa\	.	.	.	.	.
8BB/	.	8d/	.	16gg#X\	.	16g#X\L	.	.	.
.	.	.	.	16ff#\JJ	.	16f#\JJ	.	.	.
!	!	!	!	!	!	!LO:LB:g=original	!	!	!
8C#/	.	8e/	.	16ee\LL	.	16e\LL	.	.	.
.	.	.	.	16dd\	.	16d\JJ	.	.	.
8D/J	.	8f#/J	.	16cc#\	.	16c#\LL	in	.	.
.	.	.	.	16b\JJ	.	16B\JJ	.	.	.
=185	=185	=185	=185	=185	=185	=185	=185	=185	=185
!LO:TX:a:t=problem:mixed beam	!	!	!	!	!	!	!	!	!
8E\L	.	4c#/	.	4a/	.	4A\	Sae-	2ryy	.
8E\	.	.	.	.	.	.	.	.	.
8EE/	.	4b\	.	4bT/	.	8.B\	-cu-	.	.
8EE/J	.	.	.	.	.	.	.	.	.
.	.	.	.	.	.	16B\	.	.	.
!LO:LB:g=original	!	!	!	!	!	!	!	!	!
=186	=186	=186	=186	=186	=186	=186	=186	=186	=186
!LO:N:vis=4.	!	!	!	!	!	!	!	!	!
4AA/	.	16a/LL	.	16a/LL	.	4A\	-la	2ryy	.
.	.	16a/	.	16a/	.	.	.	.	.
.	.	16e/	.	16e/	.	.	.	.	.
.	.	16c#/JJ	.	16c#/JJ	.	.	.	.	.
4r	.	4A/	.	4A/	.	4r	.	.	.
=187	=187	=187	=187	=187	=187	=187	=187	=187	=187
*tremolo	*	*	*	*	*	*	*	*	*
8AA/L	.	8A/L	.	(16A/LL	.	2e\	A-	2ryy	.
.	.	.	.	16c#/)	.	.	.	.	.
8AA/	.	(16A/L	.	(16c#/	.	.	.	.	.
.	.	16c#/JJ)	.	16e/JJ)	.	.	.	.	.
8AA/	.	(16c#/LL	.	(16e/LL	.	.	.	.	.
.	.	16e/)	.	16a/)	.	.	.	.	.
8AA/J	.	(16e/	.	(16a/	.	.	.	.	.
.	.	16a/JJ)	.	16cc#/JJ)	.	.	.	.	.
=188	=188	=188	=188	=188	=188	=188	=188	=188	=188
8AA/L	.	(16a\LL	.	16cc#\LL	.	8e\	.	2ryy	.
.	.	16cc#\)	.	16ee\	.	.	.	.	.
8AA/	.	(16cc#\	.	16ee\	.	8a\	-bra-	.	.
.	.	16ff#\JJ)	.	16aa\JJ	.	.	.	.	.
!	!	!	!	!	!	!LO:TX:a:t=problem: przenutka, brak linii dodanej górnej	!	!	!
.	.	8qqff#/	.	8qqaa/	.	8qqa/	.	.	.
8AA/	.	4ee\	.	4gg\	.	4g\	-ham	.	.
8AA/J	.	.	.	.	.	.	.	.	.
=189	=189	=189	=189	=189	=189	=189	=189	=189	=189
8AA/L	.	8A/L	.	(16A/LL	.	[2e\	A-	2ryy	.
.	.	.	.	16c#/)	.	.	.	.	.
8AA/	.	(16A/L	.	(16c#/	.	.	.	.	.
.	.	16c#/JJ)	.	16e/JJ)	.	.	.	.	.
8AA/	.	(16c#/LL	.	(16e/LL	.	.	.	.	.
.	.	16e/)	.	16a/)	.	.	.	.	.
8AA/J	.	(16e/	.	(16a/	.	.	.	.	.
.	.	16a/JJ)	.	16cc#/JJ)	.	.	.	.	.
*Xtremolo	*	*	*	*	*	*	*	*	*
=190	=190	=190	=190	=190	=190	=190	=190	=190	=190
8AA/L	.	(16a\LL	.	16cc#\LL	.	8e\]	.	2ryy	.
.	.	16cc#\)	.	16ee\	.	.	.	.	.
8AA/J	.	(16cc#\	.	16ee\	.	8g\	-bra-	.	.
.	.	16ee\JJ)	.	16gg\JJ	.	.	.	.	.
!LO:TX:a:t=problem:mixed beam	!	!	!	!	!	!	!	!	!
.	.	8qqee/	.	8qqgg/	.	8qqg/	.	.	.
8D\L	.	4dd\	.	4ff#\	.	4f#\	-ham	.	.
8DD/J	.	.	.	.	.	.	.	.	.
=191	=191	=191	=191	=191	=191	=191	=191	=191	=191
!	!LO:DY:t=pianis	!	!	!	!	!	!	!	!
!	!LO:DY:a	!	!	!	!	!	!	!	!
16D\LL	pp	2dd\	.	2ff#\	.	2f#\	et	2ryy	.
16D\	.	.	.	.	.	.	.	.	.
16F#\	.	.	.	.	.	.	.	.	.
16F#\JJ	.	.	.	.	.	.	.	.	.
16A\LL	.	.	.	.	.	.	.	.	.
16A\	.	.	.	.	.	.	.	.	.
16d\	.	.	.	.	.	.	.	.	.
16d\JJ	.	.	.	.	.	.	.	.	.
!	!	!LO:PB:g=original	!	!	!	!	!	!	!
=192	=192	=192	=192	=192	=192	=192	=192	=192	=192
!	!	!	!	!LO:TX:a:t=problem:brak taktu	!	!LO:TX:a:t=problem:brak taktu	!	!	!
2ryy	.	2dd\	.	2ryy	.	2ryy	.	2ryy	.
=193	=193	=193	=193	=193	=193	=193	=193	=193	=193
4D\	.	8dd\L	.	8ff#\L	.	8f#\L	se-	2ryy	.
.	.	16cc#\L	.	16ee\L	.	16e\L	.	.	.
.	.	16b\JJ	.	16dd\JJ	.	16d\JJ	.	.	.
8r	.	16a/LL	.	16cc#\LL	.	16c#\LL	-mi-	.	.
.	.	16g/	.	16b\	.	16B\JJ	.	.	.
8AA/	.	16f#/	.	16a\	.	16A/LL	-ni	.	.
.	.	16e/JJ	.	16g\JJ	.	16G/JJ	.	.	.
!	!	!	!	!LO:PB:g=original	!	!	!	!	!
=194	=194	=194	=194	=194	=194	=194	=194	=194	=194
!	!	!LO:TX:a:t=problem:mixed beam	!	!LO:TX:a:t=problem:mixed beam	!	!LO:TX:a:t=problem:mixed beam	!	!	!
8D\L	.	8d/L	.	8f#/L	.	8F#/L	e-	2ryy	.
8G\	.	8dd\	.	8bb\J	.	8b\J	.	.	.
8F#\	.	8dd\	.	16aa\LL	.	16a\LL	-jus	.	.
.	.	.	.	16gg\	.	16g\JJ	.	.	.
8G\J	.	8b\J	.	16ff#\	.	16f#\LL	in	.	.
.	.	.	.	16ee\JJ	.	16e\JJ	.	.	.
=195	=195	=195	=195	=195	=195	=195	=195	=195	=195
!LO:TX:a:t=problem:mixed beam	!	!	!	!	!	!	!	!	!
8A\L	.	4f#/	.	4dd\	.	8.d\	Sae-	2ryy	.
8A\	.	.	.	.	.	.	.	.	.
.	.	.	.	.	.	16e\	-cu-	.	.
8AA/	.	4cc#t\	.	4eeT\	.	4e\	-la	.	.
8AA/J	.	.	.	.	.	.	.	.	.
=196	=196	=196	=196	=196	=196	=196	=196	=196	=196
16D\LL	.	2dd\	.	2ff#\	.	2f#\	et	2ryy	.
16D\	.	.	.	.	.	.	.	.	.
16F#\	.	.	.	.	.	.	.	.	.
16F#\JJ	.	.	.	.	.	.	.	.	.
16A\LL	.	.	.	.	.	.	.	.	.
16A\	.	.	.	.	.	.	.	.	.
16d\	.	.	.	.	.	.	.	.	.
16d\JJ	.	.	.	.	.	.	.	.	.
=197	=197	=197	=197	=197	=197	=197	=197	=197	=197
4D\	.	8dd\L	.	8ff#\L	.	8f#\L	Se-	2ryy	.
.	.	16cc#\L	.	16ee\L	.	16e\L	.	.	.
.	.	16b\JJ	.	16dd\JJ	.	16d\JJ	.	.	.
8r	.	16a/LL	.	16cc#\LL	.	16c#\LL	-mi-	.	.
.	.	16g/	.	16b\	.	16B\JJ	.	.	.
8AA/	.	16f#/	.	16a\	.	16A/LL	-ni	.	.
.	.	16e/JJ	.	16g\JJ	.	16G/JJ	.	.	.
!LO:LB:g=original	!	!	!	!	!	!	!	!	!
=198	=198	=198	=198	=198	=198	=198	=198	=198	=198
!	!	!LO:TX:a:t=problem:mixed beam	!	!	!	!LO:TX:a:t=problem:mixed beam	!	!	!
8D\L	.	8d/L	.	8f#/L	.	8F#/L	e-	2ryy	.
8G\	.	8dd\	.	8bb\J	.	8b\J	.	.	.
8F#\	.	8dd\	.	16aa\LL	.	16a\LL	-jus	.	.
.	.	.	.	16gg\	.	16g\JJ	.	.	.
8G\J	.	8b\J	.	16ff#\	.	16f#\LL	in	.	.
.	.	.	.	16ee\JJ	.	16e\JJ	.	.	.
=199	=199	=199	=199	=199	=199	=199	=199	=199	=199
!LO:TX:a:t=problem:mixed beam	!	!	!	!	!	!	!	!	!
8A\L	.	4f#/	.	4dd\	.	8.d\	Sae-	2ryy	.
8A\	.	.	.	.	.	.	.	.	.
.	.	.	.	.	.	16e\	-cu-	.	.
8AA/	.	4cc#t\	.	4eeT\	.	4e\	.	.	.
8AA/J	.	.	.	.	.	.	.	.	.
!	!	!	!	!	!	!LO:LB:g=original	!	!	!
=200	=200	=200	=200	=200	=200	=200	=200	=200	=200
!	!LO:DY:t=for	!	!LO:DY:t=for	!	!	!	!	!	!
!	!LO:DY:a	!LO:TX:a:t=problem:mixed beam	!LO:DY:a	!LO:TX:a:t=problem:mixed beam	!	!	!	!	!
8D\L	f	8dd\L	f	8dd\L	.	4d\	-la	2ryy	.
8F#\	.	16f#/L	.	16f#/L	.	.	.	.	.
.	.	16f#/JJ	.	16f#/JJ	.	.	.	.	.
8G\	.	16g/LL	.	16g/LL	.	4r	.	.	.
.	.	16g/	.	16g/	.	.	.	.	.
8E\J	.	16e/	.	16e/	.	.	.	.	.
.	.	16e/JJ	.	16e/JJ	.	.	.	.	.
=201	=201	=201	=201	=201	=201	=201	=201	=201	=201
8A\L	.	16a/LL	.	16a/LL	.	2r	.	2ryy	.
.	.	16a/	.	16a/	.	.	.	.	.
8F#\	.	16f#/	.	16f#/	.	.	.	.	.
.	.	16f#/JJ	.	16f#/JJ	.	.	.	.	.
8B\	.	16b/LL	.	16b/LL	.	.	.	.	.
.	.	16b/	.	16b/	.	.	.	.	.
8G\J	.	16g/	.	16g/	.	.	.	.	.
.	.	16g/JJ	.	16g/JJ	.	.	.	.	.
=202	=202	=202	=202	=202	=202	=202	=202	=202	=202
8c#\L	.	16cc#\LL	.	16cc#\LL	.	4r	.	2ryy	.
.	.	16cc#\	.	16cc#\	.	.	.	.	.
8A\	.	16a\	.	16a\	.	.	.	.	.
.	.	16a\JJ	.	16a\JJ	.	.	.	.	.
8d\	.	16dd\LL	.	16dd\LL	.	8r	.	.	.
.	.	16dd\	.	16dd\	.	.	.	.	.
8G\J	.	16g\	.	16g\	.	8d\	in	.	.
.	.	16g\JJ	.	16g\JJ	.	.	.	.	.
!	!	!LO:LB:g=original	!	!	!	!	!	!	!
=203	=203	=203	=203	=203	=203	=203	=203	=203	=203
4A;\	.	4a/	.	4a/	.	4d;\	Sae-	2ryy	.
!LO:TX:a:t=Da Capo	!	!LO:N:vis=8	!	!	!	!	!	!	!
4AA/	.	4r	.	8r	.	8.e\	-cu-	.	.
!	!	!LO:TX:A:t=Da capo	!	!LO:TX:a:t=Da capo	!	!	!	!	!
.	.	.	.	8aa\	.	.	.	.	.
.	.	.	.	.	.	16e\	.	.	.
=204	=204	=204	=204	=204	=204	=204	=204	=204	=204
2ryy	.	2ryy	.	2ryy	.	4d\	-la	2ryy	.
.	.	.	.	.	.	4r	.	.	.
=205	=205	=205	=205	=205	=205	=205	=205	=205	=205
!	!	!	!	!	!	!LO:N:vis=00	!	!	!
2ryy	.	2ryy	.	2ryy	.	0r	.	2ryy	.
=206	=206	=206	=206	=206	=206	=206	=206	=206	=206
2ryy	.	2ryy	.	2ryy	.	.	.	2ryy	.
=207	=207	=207	=207	=207	=207	=207	=207	=207	=207
2ryy	.	2ryy	.	2ryy	.	.	.	2ryy	.
=208	=208	=208	=208	=208	=208	=208	=208	=208	=208
2ryy	.	2ryy	.	2ryy	.	.	.	2ryy	.
=209	=209	=209	=209	=209	=209	=209	=209	=209	=209
!	!	!	!	!	!	!LO:N:vis=00	!	!	!
2ryy	.	2ryy	.	2ryy	.	0r	.	2ryy	.
=210	=210	=210	=210	=210	=210	=210	=210	=210	=210
2ryy	.	2ryy	.	2ryy	.	.	.	2ryy	.
=211	=211	=211	=211	=211	=211	=211	=211	=211	=211
2ryy	.	2ryy	.	2ryy	.	.	.	2ryy	.
=212	=212	=212	=212	=212	=212	=212	=212	=212	=212
2ryy	.	2ryy	.	2ryy	.	.	.	2ryy	.
=213	=213	=213	=213	=213	=213	=213	=213	=213	=213
!	!	!	!	!	!	!LO:N:vis=00	!	!	!
2ryy	.	2ryy	.	2ryy	.	0r	.	2ryy	.
=214	=214	=214	=214	=214	=214	=214	=214	=214	=214
2ryy	.	2ryy	.	2ryy	.	.	.	2ryy	.
=215	=215	=215	=215	=215	=215	=215	=215	=215	=215
2ryy	.	2ryy	.	2ryy	.	.	.	2ryy	.
=216	=216	=216	=216	=216	=216	=216	=216	=216	=216
2ryy	.	2ryy	.	2ryy	.	.	.	2ryy	.
=217	=217	=217	=217	=217	=217	=217	=217	=217	=217
!	!	!	!	!	!	!LO:N:vis=00	!	!	!
2ryy	.	2ryy	.	2ryy	.	0r	.	2ryy	.
=218	=218	=218	=218	=218	=218	=218	=218	=218	=218
2ryy	.	2ryy	.	2ryy	.	.	.	2ryy	.
=219	=219	=219	=219	=219	=219	=219	=219	=219	=219
2ryy	.	2ryy	.	2ryy	.	.	.	2ryy	.
=220	=220	=220	=220	=220	=220	=220	=220	=220	=220
2ryy	.	2ryy	.	2ryy	.	.	.	2ryy	.
=221	=221	=221	=221	=221	=221	=221	=221	=221	=221
!	!	!	!	!	!	!LO:N:vis=00	!	!	!
2ryy	.	2ryy	.	2ryy	.	0r	.	2ryy	.
=222	=222	=222	=222	=222	=222	=222	=222	=222	=222
2ryy	.	2ryy	.	2ryy	.	.	.	2ryy	.
=223	=223	=223	=223	=223	=223	=223	=223	=223	=223
2ryy	.	2ryy	.	2ryy	.	.	.	2ryy	.
=224	=224	=224	=224	=224	=224	=224	=224	=224	=224
2ryy	.	2ryy	.	2ryy	.	.	.	2ryy	.
=225	=225	=225	=225	=225	=225	=225	=225	=225	=225
!	!	!	!	!	!	!LO:N:vis=00	!	!	!
2ryy	.	2ryy	.	2ryy	.	0r	.	2ryy	.
=226	=226	=226	=226	=226	=226	=226	=226	=226	=226
2ryy	.	2ryy	.	2ryy	.	.	.	2ryy	.
=227	=227	=227	=227	=227	=227	=227	=227	=227	=227
2ryy	.	2ryy	.	2ryy	.	.	.	2ryy	.
=228	=228	=228	=228	=228	=228	=228	=228	=228	=228
2ryy	.	2ryy	.	2ryy	.	.	.	2ryy	.
=229	=229	=229	=229	=229	=229	=229	=229	=229	=229
2ryy	.	2ryy	.	2ryy	.	2r	.	2ryy	.
!LO:LB:g=original	!	!LO:LB:g=original	!	!LO:LB:g=original	!	!LO:PB:g=original	!	!LO:LB:g=original	!
=230||	=230||	=230||	=230||	=230||	=230||	=230||;;	=230||	=230||	=230||
*>A1yy	*	*A1yy	*	*>A1yy	*	*>A1yy	*	*>A1yy	*
*M4/4	*	*M4/4	*	*M4/4	*	*M4/4	*	*M4/4	*
*met(c)	*	*met(c)	*	*met(c)	*	*met(c)	*	*met(c)	*
!	!	!LO:TX:a:t=adagio	!	!LO:TX:a:t=adagio	!	!	!	!	!
!LO:TX:b:t=Gloria	!	!LO:TX:b:t=Gloria	!	!LO:TX:b:t=Gloria	!	!	!	!	!
!LO:TX:a:t=Adagio	!	!LO:TX:a:t=problem:mixed beam	!	!LO:TX:a:t=problem:mixed beam	!	!LO:TX:a:t=Adagio	!	!	!
4d\	.	8dd\L	.	8dd\L	.	4A\	Glo-	8ff#\	Glo-
.	.	32d/LL	.	32d/LL	.	.	.	16ff#\	-ri-
.	.	32e/	.	32e/	.	.	.	.	.
.	.	32f#/	.	32f#/	.	.	.	16ff#\	-a
.	.	32g/JJJ	.	32g/JJJ	.	.	.	.	.
4D/	.	8a\L	.	8a\L	.	8A\	-ria	4ff#\	Pa-
.	.	32dd\LL	.	32dd\LL	.	8A\	Pa-	.	.
.	.	32ee\	.	32ee\	.	.	.	.	.
.	.	32ff#\	.	32ff#\	.	.	.	.	.
.	.	32gg\JJJ	.	32gg\JJJ	.	.	.	.	.
4A\	.	4aa;\	.	4aa;\	.	4c#\	-tri	4ee\	-tri
4r	.	4r	.	4r	.	4r	.	4r	.
=231	=231	=231	=231	=231	=231	=231	=231	=231	=231
!	!	!LO:TX:a:t=problem:mixed beam	!	!LO:TX:a:t=problem:mixed beam	!	!	!	!	!
4B\	.	8b\L	.	8b\L	.	4F#/	et	4dd\	et
.	.	32B/LL	.	32B/LL	.	.	.	.	.
.	.	32c#/	.	32c#/	.	.	.	.	.
.	.	32d/	.	32d/	.	.	.	.	.
.	.	32e/JJJ	.	32e/JJJ	.	.	.	.	.
4BB/	.	8f#/L	.	8f#/L	.	4F#/	Fili-	8dd\	Fi-
.	.	32b/LL	.	32b/LL	.	.	.	8dd\	-li-
.	.	32cc#/	.	32cc#/	.	.	.	.	.
.	.	32dd/	.	32dd/	.	.	.	.	.
.	.	32ee/JJJ	.	32ee/JJJ	.	.	.	.	.
4F#\	.	4ff#\	.	4ff#\	.	4A#X\	-o	4cc#\	-o
4r	.	4r	.	4r	.	4r	.	4r	.
=232	=232	=232	=232	=232	=232	=232	=232	=232	=232
!	!	!LO:TX:a:t=problem:mixed beam	!	!LO:TX:a:t=problem:mixed beam	!	!	!	!	!
4G\	.	8gg\L	.	8gg\L	.	8d\	et	8b\	et
.	.	32g/LL	.	32g/LL	.	8d\	Spi-	8b\	Spi-
.	.	32a/	.	32a/	.	.	.	.	.
.	.	32b/	.	32b/	.	.	.	.	.
.	.	32cc#/JJJ	.	32cc#/JJJ	.	.	.	.	.
4GG/	.	8dd\L	.	8dd\L	.	8d\	-ri-	8b\	-ri-
.	.	32gg\LL	.	32gg\LL	.	8d\	-tu-	8b\	-tu-
.	.	32aa\	.	32aa\	.	.	.	.	.
.	.	32bb\	.	32bb\	.	.	.	.	.
.	.	32ccc#\JJJ	.	32ccc#\JJJ	.	.	.	.	.
4D\	.	4ddd;\	.	4ddd\	.	4d\	-i	4a\	-i
4r	.	4r	.	4r	.	4r	.	4r	.
=233	=233	=233	=233	=233	=233	=233	=233	=233	=233
8GG#X/L	.	8G#X/L	.	8G#X/L	.	4.d\	San-	2ff#\	San-
8GG#/	.	8G#/	.	8G#/	.	.	.	.	.
8GG#/	.	8G#/	.	8G#/	.	.	.	.	.
8GG#/J	.	8G#/J	.	8G#/J	.	8d\	.	.	.
4AA/	.	4A/	.	4A;/	.	4c#\	-cto	4ee\	-cto
4r	.	4r	.	4r	.	4r	.	4r	.
=234	=234	=234	=234	=234	=234	=234	=234	=234	=234
*>B1yy	*	*>B1yy	*	*>B1yy	*	*>B1yy	*	*>B1yy	*
!LO:TX:a:t=Allo	!	!LO:TX:a:t=Allo	!	!LO:TX:a:t=Allo:	!	!LO:TX:a:t=Allo	!	!LO:TX:a:t=allo	!
8D\L	.	8d/L	.	8d/L	.	4.A\	Si-	4.dd\	Si-
8D\	.	8f#/	.	8d/J	.	.	.	.	.
8D\	.	8f#/	.	24d/LL	.	.	.	.	.
.	.	.	.	24e/	.	.	.	.	.
.	.	.	.	24f#/JJ	.	.	.	.	.
8D\J	.	8f#/J	.	24f#/LL	.	8F#/	-cut	8a\	-cut
.	.	.	.	24g/	.	.	.	.	.
.	.	.	.	24a/JJ	.	.	.	.	.
!	!	!LO:LB:g=original	!	!LO:LB:g=original	!	!	!	!LO:LB:g=original	!
8D\L	.	8g/L	.	8b\	.	8G/	e-	8b\	e-
8D\	.	8g/	.	4.b\	.	4.G/	-rat	4.b\	-rat
8D\	.	8g/	.	.	.	.	.	.	.
8D\J	.	8g/J	.	.	.	.	.	.	.
!	!	!	!	!	!	!LO:LB:g=original	!	!	!
=235	=235	=235	=235	=235	=235	=235	=235	=235	=235
8D\L	.	8b/	.	8gg\	.	4.B\	in	4.gg\	in
8D\	.	4b/	.	4gg\	.	.	.	.	.
8D\	.	.	.	.	.	.	.	.	.
8D\J	.	8g/	.	8b/	.	8G/	prin-	8b\	prin-
8D\L	.	8g/L	.	8b/L	.	8G/	-ci-	8b\	-ci-
8D\	.	8f#/	.	8a/J	.	16G/	-pi-	16a\	-pi-
.	.	.	.	.	.	16F#/	-o	16a\	-o
8F#\	.	8a/	.	24d/LL	.	4A\	et	4dd\	et
.	.	.	.	24f#/	.	.	.	.	.
.	.	.	.	24a/JJ	.	.	.	.	.
8F#\J	.	8a/J	.	24dd\LL	.	.	.	.	.
.	.	.	.	24ee\	.	.	.	.	.
.	.	.	.	24ff#\JJ	.	.	.	.	.
=236	=236	=236	=236	=236	=236	=236	=236	=236	=236
!LO:TX:a:t=problem:mixed beam	!	!	!	!	!	!	!	!	!
8G\L	.	8b\L	.	16ee\LL	.	8B\	nunc	8ee\	nunc
.	.	.	.	16dd\	.	.	.	.	.
8G\	.	8b\	.	16cc#\	.	8B\	et	8a\	et
.	.	.	.	16b\JJ	.	.	.	.	.
8A\	.	8cc#\	.	8a/L	.	8c#\	Sem-	8a\	nunc
8AA/J	.	8cc#\J	.	8g/J	.	8c#\	-per	8g/	et
8D\L	.	8ee\L	.	8g/L	.	8e\	Sem-	8g/	sem-
8D\	.	8dd\J	.	8f#/J	.	8d\	-per	8f#/	-per
8D\	.	16d/LL	.	16f#/LL	.	[>4A/	et	[4ff#\	et
.	.	16A/	.	16d/	.	.	.	.	.
8D\J	.	16f#/	.	16a/	.	.	.	.	.
.	.	16d/JJ	.	16f#/JJ	.	.	.	.	.
!LO:LB:g=original	!	!	!	!	!	!	!	!	!
=237	=237	=237	=237	=237	=237	=237	=237	=237	=237
*tremolo	*	*	*	*	*	*	*	*	*
8D\L	.	16a/LL	.	16dd\LL	.	8A\]	in	8ff#\]	.
.	.	16f#/JJ	.	16a\	.	.	.	.	.
8D\	.	16dd\LL	.	16ff#\	.	8A\	.	8ff#\	in
.	.	16a\JJ	.	16dd\JJ	.	.	.	.	.
8D\	.	8ff#\L	.	8aa\L	.	8A\	Sae-	8ff#\	Sae-
8D\J	.	8dd\J	.	8ff#\J	.	8A\	-cu-	8ff#\	-cu-
.	.	8qqdd/	.	8qqff#/	.	.	.	.	.
8A\L	.	16cc#\LL	.	16ee\LL	.	4c#\	-la	4ee\	-la
.	.	16b\J	.	16dd\J	.	.	.	.	.
8A\	.	8cc#\J	.	8ee\J	.	.	.	.	.
!	!	!	!	!	!	!	!	!LO:LB:g=original	!
8A\	.	16c#/LL	.	16e/LL	.	8c#\	Sae-	8ee\	Sae-
.	.	16A/	.	16c#/	.	.	.	.	.
8A\J	.	16e/	.	16a/	.	8c#\	-cu-	8ee\	-cu-
.	.	16c#/JJ	.	16f#/JJ	.	.	.	.	.
!	!	!	!	!	!	!LO:LB:g=original	!	!	!
=238	=238	=238	=238	=238	=238	=238	=238	=238	=238
8A\L	.	16a/LL	.	16cc#\LL	.	4c#\	-lo-	4ee\	-lo-
.	.	16e/JJ	.	16a\	.	.	.	.	.
8A\	.	16cc#\LL	.	16ee\	.	.	.	.	.
.	.	16a\JJ	.	16cc#\JJ	.	.	.	.	.
8A\	.	8ee\L	.	8aa\L	.	4c#\	-rum	4ee\	-rum
8A\J	.	8cc#\J	.	8ee\J	.	.	.	.	.
*Xtremolo	*	*	*	*	*	*	*	*	*
8E\L	.	16b\LL	.	16dd\LL	.	16B\LL	a-	16dd\LL	a-
.	.	16a\J	.	16cc#\J	.	16A\J	.	16cc#\J	.
8E\	.	8b\J	.	8dd\J	.	8B\J	.	8dd\J	.
8E\	.	8dd\L	.	8bb\L	.	4B\	.	4dd\	.
8G#X\J	.	8b\J	.	8dd\J	.	.	.	.	.
!	!	!	!	!LO:LB:g=original	!	!	!	!	!
=239	=239	=239	=239	=239	=239	=239	=239	=239	=239
8A\L	.	16a\LL	.	16cc#\LL	.	8A\	-men	8cc#\	-men
.	.	16ee\	.	16aa\	.	.	.	.	.
8c#\	.	16cc#\	.	16ee\	.	8c#\	Sae-	8ee\	Sae-
.	.	16a\JJ	.	16cc#\JJ	.	.	.	.	.
8E\	.	8b\L	.	8dd\L	.	8B\	-cu-	8dd\	-cu-
8G#X\J	.	8b\J	.	8dd\J	.	(8B\	.	8dd\	-lo-
!LO:TX:a:t=problem:mixed beam	!	!LO:LB:g=original	!	!	!	!	!	!	!
8A\L	.	24a\LL	.	24cc#\LL	.	8A\L)	-lo-	8cc#\L	-rum
.	.	24ee\	.	24ee\	.	.	.	.	.
.	.	24aa\JJ	.	24aa\JJ	.	.	.	.	.
8D\	.	24cc#\LL	.	24cc#\LL	.	16B\L	-rum	16b\L	.
.	.	24b\	.	24b\	.	.	.	.	.
.	.	.	.	.	.	16c#\JJ	.	16a\JJ	.
.	.	24a\JJ	.	24a\JJ	.	.	.	.	.
8E\	.	4g#X/	.	4b\	.	4G#X/	a-	4b\	a-
8EE/J	.	.	.	.	.	.	.	.	.
=240	=240	=240	=240	=240	=240	=240	=240	=240	=240
!LO:TX:a:t=problem:mixed beam	!	!	!	!	!	!	!	!	!
8AA/L	.	8a\L	.	8A/L	.	4A\	-men	4a\	-men
8A\	.	8cc#\	.	8a/J	.	.	.	.	.
8A\	.	8cc#\	.	24a/LL	.	8c#\	Si-	8ee\	si-
.	.	.	.	24b/	.	.	.	.	.
.	.	.	.	24cc#/JJ	.	.	.	.	.
8A\J	.	8cc#\J	.	24cc#\LL	.	8c#\	-cut	8ee\	-cut
.	.	.	.	24dd\	.	.	.	.	.
.	.	.	.	24ee\JJ	.	.	.	.	.
*tremolo	*	*	*	*	*	*	*	*	*
8A\L	.	8dd\L	.	8ff#\	.	8d\	e-	8ff#\	e-
8A\	.	8dd\	.	4.ff#\	.	4.d\	-rat	4.ff#\	-rat
8A\	.	8dd\	.	.	.	.	.	.	.
8A\J	.	8dd\J	.	.	.	.	.	.	.
!	!	!	!	!	!	!	!	!LO:LB:g=original	!
=241	=241	=241	=241	=241	=241	=241	=241	=241	=241
8A\L	.	8dd\	.	8ddd\	.	4d\	in	4ff#\	in
8A\	.	4ff#\	.	4ddd\	.	.	.	.	.
8A\	.	.	.	.	.	8d\	prin-	8ff#\	prin-
8A\J	.	8dd\	.	8ff#\	.	8d\	-ci-	8ff#\	-ci-
*Xtremolo	*	*	*	*	*	*	*	*	*
!LO:TX:a:t=problem:mixed beam	!	!	!	!	!	!LO:LB:g=original	!	!	!
8A\L	.	8dd\L	.	8ff#\L	.	8d\	-pi-	8ff#\	-pi-
8A\	.	8cc#\J	.	8ee\J	.	8c#\	-o	8ee\	-o
8C#/	.	8e/L	.	24a\LL	.	4c#\	et	4ee\	et
.	.	.	.	24cc#\	.	.	.	.	.
.	.	.	.	24ee\JJ	.	.	.	.	.
8C#/J	.	8e/J	.	24aa\LL	.	.	.	.	.
.	.	.	.	24bb\	.	.	.	.	.
.	.	.	.	24ccc#\JJ	.	.	.	.	.
=242	=242	=242	=242	=242	=242	=242	=242	=242	=242
8D\L	.	8f#/L	.	16bb\LL	.	8B\	nunc	8dd\	nunc
.	.	.	.	16aa\	.	.	.	.	.
8D\	.	8f#/	.	16gg#X\	.	8B\	et	8dd\	et
.	.	.	.	16ff#\JJ	.	.	.	.	.
.	.	.	.	.	.	8qqc#/	.	.	.
8E\	.	8f#/	.	8ee\L	.	4B\	Sem-	4dd\	Sem-
8E\J	.	8b/J	.	8dd\J	.	.	.	.	.
!LO:TX:a:t=problem:mixed beam	!	!	!	!	!	!	!	!	!
.	.	8qqb/	.	8qqdd/	.	.	.	.	.
8AA/L	.	4a/	.	4cc#\	.	4A\	-per	4cc#\	-per
8A\	.	.	.	.	.	.	.	.	.
8A\	.	16e/LL	.	16a\LL	.	8c#\	et	8ee\	et
.	.	16a/	.	16cc#\	.	.	.	.	.
8A\J	.	16cc#/	.	16ee\	.	8c#\	in	8ee\	in
.	.	16dd/JJ	.	16ff#\JJ	.	.	.	.	.
!	!	!	!	!LO:LB:g=original	!	!	!	!	!
=243	=243	=243	=243	=243	=243	=243	=243	=243	=243
*tremolo	*	*	*	*	*	*	*	*	*
8A\L	.	16ee/LL	.	16ggn\LL	.	4c#\	Sae-	4ee\	Sae-
.	.	16cc#/	.	16ee\	.	.	.	.	.
8A\	.	16a/	.	16cc#\	.	.	.	.	.
.	.	16e/JJ	.	16a\JJ	.	.	.	.	.
!	!	!LO:TX:a:t=problem:mixed beam	!	!LO:TX:a:t=problem:mixed beam	!	!	!	!	!
8A\	.	8A/L	.	8A/L	.	4c#\	-cu-	4ee\	-cu-
8A\J	.	8ee\J	.	8gg\J	.	.	.	.	.
*Xtremolo	*	*	*	*	*	*	*	*	*
*Xtremolo	*	*	*	*	*	*	*	*	*
4D\	.	4dd\	.	4ff#\	.	4d\	-la	4ff#\	-la
8F#\L	.	8a/L	.	16d/LL	.	8A/	Sae-	8dd\	Sae-
.	.	.	.	16f#/	.	.	.	.	.
16D\L	.	8a/J	.	16a/	.	8G/	-cu-	8dd\	-cu-
16E\JJ	.	.	.	16dd/JJ	.	.	.	.	.
!LO:LB:g=original	!	!	!	!	!	!	!	!	!
=244	=244	=244	=244	=244	=244	=244	=244	=244	=244
8F#\L	.	8a/L	.	16ff#\LL	.	8A\L	-lo-	(4dd\	-lo-
.	.	.	.	16aa\	.	.	.	.	.
8E\	.	8g/	.	16ff#\	.	8G\	.	.	.
.	.	.	.	16dd\JJ	.	.	.	.	.
.	.	.	.	8qqdd/	.	.	.	.	.
8D\	.	8f#/	.	8ccn\L	.	8F#\	.	4cc#\)	.
8F#\J	.	8a/J	.	8cc\J	.	8A\J	.	.	.
!LO:TX:a:t=problem:mixed beam	!	!	!	!	!	!	!	!LO:PB:g=original	!
.	.	.	.	8qqcc/	.	.	.	.	.
8G\L	.	4d/	.	4b\	.	4G/	-rum	4b\	-rum
8GG/J	.	.	.	.	.	.	.	.	.
8G#X\L	.	8b\L	.	16e/LL	.	8B\	sae-	8ee\	Sae-
.	.	.	.	16g#X/	.	.	.	.	.
16E\L	.	16g\L	.	16b/	.	8A\	-cu-	8ee\	-cu-
16F#\JJ	.	16a\JJ	.	16ee/JJ	.	.	.	.	.
!	!	!LO:LB:g=original	!	!	!	!LO:LB:g=original	!	!	!
=245	=245	=245	=245	=245	=245	=245	=245	=245	=245
!LO:TX:a:t=SIC:s=G#	!	!	!	!	!	!	!	!	!
8G\L	.	8b\L	.	16gg#X\LL	.	8B\L	-lo-	(4ee\	-lo-
.	.	.	.	16bb\	.	.	.	.	.
8F#\	.	8a\	.	16gg#\	.	8A\	.	.	.
.	.	.	.	16ee\JJ	.	.	.	.	.
8E\	.	8g\	.	8dd\L	.	8G#X\	.	4dd\)	.
8G#X\J	.	8b\J	.	8dd\J	.	8B\J	.	.	.
!	!	!LO:TX:a:t=problem:mixed beam	!	!	!	!	!	!	!
.	.	.	.	8qqdd/	.	.	.	.	.
8A\L	.	8e/L	.	8cc#\L	.	4A\	-rum	4cc#\	-rum
8E\	.	8cc#\	.	8gg#\J	.	.	.	.	.
8C#\	.	8dd\	.	4gg#t\	.	8c#\L	et	4gg\	Sae-
8C#\J	.	8ee\J	.	.	.	8d\J	.	.	.
=246	=246	=246	=246	=246	=246	=246	=246	=246	=246
8D\L	.	8dd\L	.	8ff#\L	.	(4d\	in	4ff#\	.
8E\J	.	8cc#\	.	8gg\J	.	.	.	.	.
8BB/L	.	8dd\	.	4ggT\	.	4e\)	.	(4gg\	-cu-
8C#/J	.	8ee\J	.	.	.	.	.	.	.
!LO:TX:a:t=problem:mixed beam	!	!	!	!	!	!	!	!	!
8D\L	.	8a/L	.	8ff#\L	.	8d\L	Sae-	8ff#\L)	-lo-
8G\	.	8b/J	.	16ee\L	.	16e\L	.	16ee\L	.
.	.	.	.	16dd\JJ	.	16f#\JJ	.	16dd\JJ	.
.	.	8qqdd/	.	.	.	.	.	.	.
8A\	.	4cc#\	.	4eeT\	.	4c#\	-cu-	4ee\	.
8AA/J	.	.	.	.	.	.	.	.	.
=247	=247	=247	=247	=247	=247	=247	=247	=247	=247
8D\L	.	8dd\L	.	8dd\L	.	4d\	-la	4dd\	-rum
8E\	.	8cc#\	.	8gg\J	.	.	.	.	.
8BB\	.	8dd\	.	4ggT\	.	8d\	Sae-	8gg\	Sae-
8C#\J	.	8ee\J	.	.	.	8e\	-cu-	8gg\	-cu-
!	!	!	!	!LO:LB:g=original	!	!	!	!	!
8D\L	.	8dd\L	.	8ff#\L	.	4d\	-lo-	4ff#\	-lo-
8E\	.	8cc#\	.	8gg\J	.	.	.	.	.
8BB\	.	8dd\	.	4ggT\	.	4e\	-rum	4gg\	-rum
8C#\J	.	8ee\J	.	.	.	.	.	.	.
=248	=248	=248	=248	=248	=248	=248	=248	=248	=248
!LO:TX:a:t=problem:mixed beam	!	!	!	!	!	!	!	!	!
8D\L	.	8a/L	.	8ff#\L	.	8d\	a-	8ff#\	a-
8G\	.	8b/J	.	16ee\L	.	16e\LL	.	16ee\LL	.
.	.	.	.	16dd\JJ	.	16f#\JJ	.	16dd\JJ	.
.	.	8qqdd/	.	.	.	.	.	.	.
!	!	!	!	!	!	!	!	!LO:LB:g=original	!
8A\	.	4cc#\	.	4eeT\	.	4c#\	-men	4ee\	.
8AA/J	.	.	.	.	.	.	.	.	.
!LO:TX:a:t=problem:mixed beam	!	!LO:TX:a:t=problem:mixed beam	!	!	!	!	!	!	!
8D\L	.	8f#/L	.	8dd\L	.	4d\	a-	4dd\	-men
8F#\	.	8ff#\	.	8ddd\	.	.	.	.	.
8A\	.	8cc#\	.	8ee\	.	4e\	.	4ee\	a-
8AA/J	.	8ee\J	.	8ccc#\J	.	.	.	.	.
!	!	!	!	!	!	!LO:LB:g=original	!	!	!
=249	=249	=249	=249	=249	=249	=249	=249	=249	=249
4D\	.	4ff#\	.	4ddd\	.	4f#\	-men	4ff#\	-men
4r	.	4r	.	4r	.	4r	.	4r	.
!	!	!	!	!	!	!LO:TX:b:t=ad M D. G. B. UM. Honorem	!	!	!
!LO:TX:A:t=problem:ozdobna kreska taktowa	!	!LO:TX:a:t=problem:ozdobna kreska taktowa	!	!LO:TX:a:t=problem:ozdobna kreska taktowa	!	!LO:TX:a:t=problem: ozdobna kreska taktowa	!	!LO:TX:a:t=problem: ozdobna kreska taktowa	!
2r	.	2r	.	2r	.	2r	.	2r	.
==;;	==	==;;	==	==;;	==	==	==	==;;	==
*-	*-	*-	*-	*-	*-	*-	*-	*-	*-
!!!system-decoration: [(g1)][(g2)][(g3)]
!!!RDF**kern: >=above
!!!RDF**kern: <= below
!!!ENC: Marcin Jachim
!!!END: 2020-05-19
!!!ENC:Anna Matuszewska
!!!END:2020-09-12
